<?xml version="1.0" encoding="UTF-8"?>
<map version="1.10" tiledversion="1.12.2" orientation="orthogonal" renderorder="right-down" width="41" height="40" tilewidth="64" tileheight="64" infinite="0" nextlayerid="100" nextobjectid="342">
 <tileset firstgid="1" name="floor_gravel" tilewidth="64" tileheight="64" tilecount="1" columns="1">
  <image source="../Shared/tiles/floor_gravel_64.png" width="64" height="64"/>
 </tileset>
 <tileset firstgid="2" source="objects.tsx"/>
 <layer id="1" name="floor" width="41" height="40">
  <data encoding="csv">
0,0,0,0,0,0,0,0,0,0,0,0,0,0,0,0,0,0,0,0,0,0,0,0,0,0,0,0,0,0,0,0,0,0,0,0,0,0,0,0,0,
0,0,0,0,0,0,0,0,0,0,0,0,0,0,0,0,0,0,0,0,0,0,0,0,0,0,0,0,0,0,0,0,0,0,0,0,0,0,0,0,0,
0,0,1,1,1,1,1,1,1,1,1,1,1,1,0,0,0,0,0,0,0,0,0,0,0,0,0,0,1,1,1,1,1,1,1,1,1,0,0,0,0,
0,0,1,1,1,1,1,1,1,1,1,1,1,1,0,0,0,1,1,1,1,1,1,0,0,0,0,0,1,1,1,1,1,1,1,1,1,0,0,0,0,
0,0,1,1,1,1,1,1,1,1,1,1,1,1,0,0,0,1,1,1,1,1,1,0,0,0,0,0,1,1,1,1,1,1,1,1,1,0,0,0,0,
0,0,1,1,1,1,1,1,1,1,1,1,1,1,1,1,1,1,1,0,0,1,1,0,0,0,0,0,1,1,1,1,1,1,1,1,1,0,0,0,0,
0,0,1,1,1,1,1,1,1,1,1,1,1,1,1,1,1,1,1,0,0,1,1,0,0,0,0,0,1,1,1,1,1,1,1,1,1,0,0,0,0,
0,0,1,1,1,1,1,1,1,1,1,1,1,1,0,0,0,0,0,0,0,1,1,1,1,1,1,1,1,1,1,1,1,1,1,1,1,0,0,0,0,
0,0,1,1,1,1,1,1,1,1,1,1,1,1,0,0,0,0,0,0,0,1,1,1,1,1,1,1,1,1,1,1,1,1,1,1,1,0,0,0,0,
0,0,1,1,1,1,1,1,1,1,1,1,1,1,0,0,0,0,0,0,0,0,0,0,0,0,0,0,1,1,1,1,1,1,1,1,1,0,0,0,0,
0,0,1,1,1,1,1,1,1,1,1,1,1,1,0,0,0,0,0,0,0,0,0,0,0,0,0,0,1,1,1,1,1,1,1,1,1,0,0,0,0,
0,0,1,1,1,1,1,1,1,1,1,1,1,1,0,0,0,0,0,0,0,0,0,0,0,0,0,0,1,1,1,1,1,1,1,1,1,0,0,0,0,
0,0,1,1,1,1,1,1,1,1,1,1,1,1,1,1,1,1,0,1,1,0,0,0,0,0,0,0,1,1,1,1,1,1,1,1,1,0,0,0,0,
0,0,1,1,1,1,1,1,1,1,1,1,1,1,1,1,1,1,0,1,1,0,0,0,0,0,0,0,1,1,1,1,1,1,1,1,1,0,0,0,0,
0,0,0,0,0,1,1,0,0,0,0,0,0,0,0,0,1,1,0,1,1,0,0,0,0,0,0,0,1,1,1,1,1,1,1,1,1,0,0,0,0,
0,0,0,0,0,1,1,0,0,0,0,0,0,0,0,0,1,1,1,1,1,1,1,1,0,0,0,0,0,0,0,1,1,0,0,0,0,0,0,0,0,
0,0,1,1,1,1,1,1,1,1,1,1,1,1,0,0,1,1,1,1,1,1,1,1,0,0,0,0,0,0,0,1,1,0,0,0,0,0,0,0,0,
0,0,1,1,1,1,1,1,1,1,1,1,1,1,0,0,0,0,0,1,1,0,1,1,0,0,0,0,0,0,0,1,1,0,0,0,0,0,0,0,0,
0,0,1,1,1,1,1,1,1,1,1,1,1,1,0,0,0,0,0,1,1,0,1,1,1,1,1,0,0,0,0,1,1,1,1,1,1,0,0,0,0,
0,0,1,1,1,1,1,1,1,1,1,1,1,1,0,0,0,0,0,1,1,0,1,1,1,1,1,0,0,0,0,1,1,1,1,1,1,0,0,0,0,
0,0,1,1,1,1,1,1,1,1,1,1,1,1,0,0,0,0,0,0,0,0,0,0,0,1,1,0,0,0,0,0,0,0,0,1,1,0,0,0,0,
0,0,1,1,1,1,1,1,1,1,1,1,1,1,0,0,0,0,0,0,0,0,0,0,0,1,1,0,0,0,0,0,0,0,0,1,1,0,0,0,0,
0,0,1,1,1,1,1,1,1,1,1,1,1,1,0,0,0,0,0,0,0,0,1,1,1,1,1,0,0,0,0,1,1,1,1,1,1,0,0,0,0,
0,0,1,1,1,1,1,1,1,1,1,1,1,1,0,0,0,0,0,0,0,0,1,1,1,1,1,0,0,0,0,1,1,1,1,1,1,0,0,0,0,
0,0,1,1,1,1,1,1,1,1,1,1,1,1,0,0,0,0,0,0,0,0,1,1,0,0,0,0,0,0,0,1,1,0,0,0,0,0,0,0,0,
0,0,0,0,0,1,1,0,0,0,0,0,0,0,0,0,0,0,0,0,0,0,1,1,0,0,0,0,0,0,0,1,1,0,0,0,0,0,0,0,0,
0,0,0,0,0,1,1,0,0,0,0,0,0,0,0,0,0,0,0,0,0,0,1,1,1,1,1,0,0,0,0,1,1,0,0,0,0,0,0,0,0,
0,0,1,1,1,1,1,1,1,1,1,1,1,0,0,0,0,0,0,0,0,0,1,1,1,1,1,0,1,1,1,1,1,1,1,1,1,1,1,0,0,
0,0,1,1,1,1,1,1,1,1,1,1,1,0,0,0,0,0,0,0,0,0,0,0,0,1,1,0,1,1,1,1,1,1,1,1,1,1,1,0,0,
0,0,1,1,1,1,1,1,1,1,1,1,1,0,0,1,1,1,1,1,1,0,0,0,0,1,1,0,1,1,1,1,1,1,1,1,1,1,1,0,0,
0,0,1,1,1,1,1,1,1,1,1,1,1,0,0,1,1,1,1,1,1,0,0,1,1,1,1,1,1,1,1,1,1,1,1,1,1,1,1,0,0,
0,0,1,1,1,1,1,1,1,1,1,1,1,0,0,1,1,0,0,1,1,0,0,1,1,1,1,1,1,1,1,1,1,1,1,1,1,1,1,0,0,
0,0,1,1,1,1,1,1,1,1,1,1,1,0,0,1,1,0,0,1,1,0,0,1,1,0,0,0,1,1,1,1,1,1,1,1,1,1,1,0,0,
0,0,1,1,1,1,1,1,1,1,1,1,1,1,1,1,1,0,0,1,1,1,1,1,1,0,0,0,1,1,1,1,1,1,1,1,1,1,1,0,0,
0,0,1,1,1,1,1,1,1,1,1,1,1,1,1,1,1,0,0,1,1,1,1,1,1,0,0,0,1,1,1,1,1,1,1,1,1,1,1,0,0,
0,0,1,1,1,1,1,1,1,1,1,1,1,0,0,0,0,0,0,0,0,0,0,0,0,0,0,0,1,1,1,1,1,1,1,1,1,1,1,0,0,
0,0,1,1,1,1,1,1,1,1,1,1,1,0,0,0,0,0,0,0,0,0,0,0,0,0,0,0,1,1,1,1,1,1,1,1,1,1,1,0,0,
0,0,1,1,1,1,1,1,1,1,1,1,1,0,0,0,0,0,0,0,0,0,0,0,0,0,0,0,0,0,0,0,0,0,0,0,0,0,0,0,0,
0,0,0,0,0,0,0,0,0,0,0,0,0,0,0,0,0,0,0,0,0,0,0,0,0,0,0,0,0,0,0,0,0,0,0,0,0,0,0,0,0,
0,0,0,0,0,0,0,0,0,0,0,0,0,0,0,0,0,0,0,0,0,0,0,0,0,0,0,0,0,0,0,0,0,0,0,0,0,0,0,0,0
</data>
 </layer>
 <objectgroup draworder="index" id="99" name="objects">
  <object id="314" gid="79" x="550.433" y="2082.01" width="62.7773" height="66.0515"/>
  <object id="207" gid="36" x="300.035" y="1975.99" width="64" height="64">
   <properties>
    <property name="rule" value="E"/>
   </properties>
  </object>
  <object id="300" gid="40" x="314.448" y="603.155" width="64" height="64">
   <properties>
    <property name="rule" value="E"/>
   </properties>
  </object>
  <object id="261" gid="2147483750" x="2263.52" y="2198.14" width="64" height="64">
   <properties>
    <property name="rule" value="E"/>
   </properties>
  </object>
  <object id="257" gid="2147483725" x="2229.62" y="2134.31" width="64" height="64">
   <properties>
    <property name="rule" value="E"/>
   </properties>
  </object>
  <object id="260" gid="76" x="2012.71" y="2178.77" width="64" height="64">
   <properties>
    <property name="rule" value="E"/>
   </properties>
  </object>
  <object id="262" gid="77" x="2082.77" y="2176" width="64" height="64">
   <properties>
    <property name="rule" value="E"/>
   </properties>
  </object>
  <object id="2" gid="69" x="448" y="467.2" width="128" height="128">
   <properties>
    <property name="rule" value="S"/>
   </properties>
  </object>
  <object id="3" gid="2684354614" x="416" y="633.6" width="192" height="192">
   <properties>
    <property name="rule" value="A"/>
   </properties>
  </object>
  <object id="4" gid="2684354614" x="413" y="827.8" width="193" height="196">
   <properties>
    <property name="rule" value="A"/>
   </properties>
  </object>
  <object id="6" gid="99" x="128" y="448" width="64" height="64">
   <properties>
    <property name="rule" value="P"/>
   </properties>
  </object>
  <object id="7" gid="99" x="192" y="448" width="64" height="64">
   <properties>
    <property name="rule" value="P"/>
   </properties>
  </object>
  <object id="8" gid="99" x="256" y="448" width="64" height="64">
   <properties>
    <property name="rule" value="P"/>
   </properties>
  </object>
  <object id="9" gid="99" x="320" y="448" width="64" height="64">
   <properties>
    <property name="rule" value="P"/>
   </properties>
  </object>
  <object id="10" gid="2147483747" x="640" y="448" width="64" height="64">
   <properties>
    <property name="rule" value="P"/>
   </properties>
  </object>
  <object id="11" gid="2147483747" x="704" y="448" width="64" height="64">
   <properties>
    <property name="rule" value="P"/>
   </properties>
  </object>
  <object id="12" gid="2147483747" x="768" y="448" width="64" height="64">
   <properties>
    <property name="rule" value="P"/>
   </properties>
  </object>
  <object id="14" gid="99" x="128" y="704" width="64" height="64">
   <properties>
    <property name="rule" value="P"/>
   </properties>
  </object>
  <object id="15" gid="99" x="192" y="704" width="64" height="64">
   <properties>
    <property name="rule" value="P"/>
   </properties>
  </object>
  <object id="16" gid="99" x="256" y="704" width="64" height="64">
   <properties>
    <property name="rule" value="P"/>
   </properties>
  </object>
  <object id="17" gid="99" x="320" y="704" width="64" height="64">
   <properties>
    <property name="rule" value="P"/>
   </properties>
  </object>
  <object id="18" gid="2147483747" x="640" y="704" width="64" height="64">
   <properties>
    <property name="rule" value="P"/>
   </properties>
  </object>
  <object id="19" gid="2147483747" x="704" y="704" width="64" height="64">
   <properties>
    <property name="rule" value="P"/>
   </properties>
  </object>
  <object id="20" gid="2147483747" x="768" y="704" width="64" height="64">
   <properties>
    <property name="rule" value="P"/>
   </properties>
  </object>
  <object id="21" gid="2147483747" x="832" y="704" width="64" height="64">
   <properties>
    <property name="rule" value="P"/>
   </properties>
  </object>
  <object id="22" gid="90" x="147.2" y="323.2" width="64" height="64">
   <properties>
    <property name="rule" value="S"/>
   </properties>
  </object>
  <object id="23" gid="90" x="230.4" y="323.2" width="64" height="64">
   <properties>
    <property name="rule" value="S"/>
   </properties>
  </object>
  <object id="24" gid="90" x="313.6" y="323.2" width="64" height="64">
   <properties>
    <property name="rule" value="S"/>
   </properties>
  </object>
  <object id="25" gid="90" x="185.6" y="384" width="64" height="64">
   <properties>
    <property name="rule" value="S"/>
   </properties>
  </object>
  <object id="26" gid="90" x="268.8" y="384" width="64" height="64">
   <properties>
    <property name="rule" value="S"/>
   </properties>
  </object>
  <object id="27" gid="2147483738" x="646.4" y="323.2" width="64" height="64">
   <properties>
    <property name="rule" value="S"/>
   </properties>
  </object>
  <object id="32" gid="90" x="147.2" y="524.8" width="64" height="64">
   <properties>
    <property name="rule" value="S"/>
   </properties>
  </object>
  <object id="33" gid="90" x="230.4" y="524.8" width="64" height="64">
   <properties>
    <property name="rule" value="S"/>
   </properties>
  </object>
  <object id="34" gid="90" x="313.6" y="524.8" width="64" height="64">
   <properties>
    <property name="rule" value="S"/>
   </properties>
  </object>
  <object id="36" gid="90" x="268.8" y="595.2" width="64" height="64">
   <properties>
    <property name="rule" value="S"/>
   </properties>
  </object>
  <object id="37" gid="2147483738" x="646.4" y="524.8" width="64" height="64">
   <properties>
    <property name="rule" value="S"/>
   </properties>
  </object>
  <object id="38" gid="2147483738" x="729.6" y="524.8" width="64" height="64">
   <properties>
    <property name="rule" value="S"/>
   </properties>
  </object>
  <object id="39" gid="2147483738" x="812.8" y="524.8" width="64" height="64">
   <properties>
    <property name="rule" value="S"/>
   </properties>
  </object>
  <object id="40" gid="2147483738" x="691.2" y="595.2" width="64" height="64">
   <properties>
    <property name="rule" value="S"/>
   </properties>
  </object>
  <object id="41" gid="2147483738" x="774.4" y="595.2" width="64" height="64">
   <properties>
    <property name="rule" value="S"/>
   </properties>
  </object>
  <object id="43" gid="2147483676" x="126.932" y="193.358" width="64" height="64">
   <properties>
    <property name="rule" value="F"/>
   </properties>
  </object>
  <object id="44" gid="85" x="424.8" y="493.2" width="64" height="64">
   <properties>
    <property name="rule" value="F"/>
   </properties>
  </object>
  <object id="45" gid="2147483733" x="534.933" y="493.2" width="64" height="64">
   <properties>
    <property name="rule" value="F"/>
   </properties>
  </object>
  <object id="46" gid="80" x="658.8" y="348.533" width="64" height="64">
   <properties>
    <property name="rule" value="F"/>
   </properties>
  </object>
  <object id="47" gid="2147483728" x="244.933" y="401.867" width="64" height="64">
   <properties>
    <property name="rule" value="F"/>
   </properties>
  </object>
  <object id="48" gid="84" x="729.934" y="633.663" width="64" height="64">
   <properties>
    <property name="rule" value="F"/>
   </properties>
  </object>
  <object id="49" gid="2147483732" x="710.141" y="620.235" width="64" height="64">
   <properties>
    <property name="rule" value="F"/>
   </properties>
  </object>
  <object id="52" gid="2147483741" x="1024.34" y="1088.02" width="64" height="64">
   <properties>
    <property name="rule" value="S"/>
   </properties>
  </object>
  <object id="53" gid="20" x="575.16" y="895.639" width="64" height="64">
   <properties>
    <property name="rule" value="E"/>
   </properties>
  </object>
  <object id="56" gid="2147483669" x="1088.48" y="834.544" width="64" height="64">
   <properties>
    <property name="rule" value="E"/>
   </properties>
  </object>
  <object id="57" gid="76" x="296.6" y="626" width="64" height="64">
   <properties>
    <property name="rule" value="E"/>
   </properties>
  </object>
  <object id="58" gid="2147483750" x="479.333" y="405.733" width="64" height="64">
   <properties>
    <property name="rule" value="E"/>
   </properties>
  </object>
  <object id="59" gid="40" x="736.189" y="391.413" width="64" height="64">
   <properties>
    <property name="rule" value="E"/>
   </properties>
  </object>
  <object id="60" gid="2147483693" x="129.814" y="897.971" width="64" height="64">
   <properties>
    <property name="rule" value="E"/>
   </properties>
  </object>
  <object id="62" gid="2147483749" x="819.2" y="627.2" width="64" height="64">
   <properties>
    <property name="rule" value="E"/>
   </properties>
  </object>
  <object id="63" gid="39" x="320" y="806.4" width="64" height="64">
   <properties>
    <property name="rule" value="E"/>
   </properties>
  </object>
  <object id="64" gid="2147483684" x="446.634" y="855.056" width="64" height="64">
   <properties>
    <property name="rule" value="E"/>
   </properties>
  </object>
  <object id="65" gid="3221225560" x="1984" y="384" width="64" height="64">
   <properties>
    <property name="rule" value="A"/>
   </properties>
  </object>
  <object id="66" gid="1073741912" x="2048" y="384" width="64" height="64">
   <properties>
    <property name="rule" value="A"/>
   </properties>
  </object>
  <object id="67" gid="2147483736" x="2112" y="384" width="64" height="64">
   <properties>
    <property name="rule" value="A"/>
   </properties>
  </object>
  <object id="68" gid="2147483736" x="1920" y="448" width="64" height="64">
   <properties>
    <property name="rule" value="A"/>
   </properties>
  </object>
  <object id="69" gid="88" x="1984" y="448" width="64" height="64">
   <properties>
    <property name="rule" value="A"/>
   </properties>
  </object>
  <object id="70" gid="3221225560" x="2048" y="448" width="64" height="64">
   <properties>
    <property name="rule" value="A"/>
   </properties>
  </object>
  <object id="71" gid="1073741912" x="2112" y="448" width="64" height="64">
   <properties>
    <property name="rule" value="A"/>
   </properties>
  </object>
  <object id="72" gid="2147483736" x="2176" y="448" width="64" height="64">
   <properties>
    <property name="rule" value="A"/>
   </properties>
  </object>
  <object id="73" gid="2147483736" x="1984" y="512" width="64" height="64">
   <properties>
    <property name="rule" value="A"/>
   </properties>
  </object>
  <object id="74" gid="88" x="2048" y="512" width="64" height="64">
   <properties>
    <property name="rule" value="A"/>
   </properties>
  </object>
  <object id="75" gid="3221225560" x="2112" y="512" width="64" height="64">
   <properties>
    <property name="rule" value="A"/>
   </properties>
  </object>
  <object id="76" gid="95" x="1866" y="276" width="64" height="64">
   <properties>
    <property name="rule" value="S"/>
   </properties>
  </object>
  <object id="77" gid="2147483743" x="2230" y="276" width="64" height="64">
   <properties>
    <property name="rule" value="S"/>
   </properties>
  </object>
  <object id="78" gid="85" x="1946" y="292" width="64" height="64">
   <properties>
    <property name="rule" value="R"/>
   </properties>
  </object>
  <object id="79" gid="2147483733" x="2150" y="292" width="64" height="64">
   <properties>
    <property name="rule" value="R"/>
   </properties>
  </object>
  <object id="80" gid="86" x="2048" y="452" width="64" height="64">
   <properties>
    <property name="rule" value="A"/>
   </properties>
  </object>
  <object id="81" gid="84" x="2048" y="374" width="64" height="64">
   <properties>
    <property name="rule" value="R"/>
   </properties>
  </object>
  <object id="82" gid="96" x="2136" y="354" width="64" height="64">
   <properties>
    <property name="rule" value="R"/>
   </properties>
  </object>
  <object id="83" gid="83" x="2098.06" y="448.88" width="64" height="64">
   <properties>
    <property name="rule" value="R"/>
   </properties>
  </object>
  <object id="84" gid="96" x="2134" y="492" width="64" height="64">
   <properties>
    <property name="rule" value="R"/>
   </properties>
  </object>
  <object id="85" gid="84" x="2048" y="522" width="64" height="64">
   <properties>
    <property name="rule" value="R"/>
   </properties>
  </object>
  <object id="86" gid="96" x="1958" y="492" width="64" height="64">
   <properties>
    <property name="rule" value="R"/>
   </properties>
  </object>
  <object id="87" gid="83" x="1995.3" y="448" width="64" height="64">
   <properties>
    <property name="rule" value="R"/>
   </properties>
  </object>
  <object id="88" gid="96" x="1960" y="354" width="64" height="64">
   <properties>
    <property name="rule" value="R"/>
   </properties>
  </object>
  <object id="89" gid="99" x="1792" y="608" width="64" height="64">
   <properties>
    <property name="rule" value="G"/>
   </properties>
  </object>
  <object id="90" gid="99" x="1856" y="608" width="64" height="64">
   <properties>
    <property name="rule" value="G"/>
   </properties>
  </object>
  <object id="91" gid="99" x="2240" y="608" width="64" height="64">
   <properties>
    <property name="rule" value="G"/>
   </properties>
  </object>
  <object id="92" gid="99" x="2304" y="608" width="64" height="64">
   <properties>
    <property name="rule" value="G"/>
   </properties>
  </object>
  <object id="93" gid="108" x="1984" y="768" width="192" height="192">
   <properties>
    <property name="rule" value="A"/>
   </properties>
  </object>
  <object id="94" gid="108" x="1984" y="960" width="192" height="192">
   <properties>
    <property name="rule" value="A"/>
   </properties>
  </object>
  <object id="95" gid="75" x="1856" y="678" width="64" height="64">
   <properties>
    <property name="rule" value="W"/>
   </properties>
  </object>
  <object id="96" gid="2147483723" x="1920" y="678" width="64" height="64">
   <properties>
    <property name="rule" value="W"/>
   </properties>
  </object>
  <object id="97" gid="75" x="2176" y="678" width="64" height="64">
   <properties>
    <property name="rule" value="W"/>
   </properties>
  </object>
  <object id="98" gid="2147483723" x="2240" y="678" width="64" height="64">
   <properties>
    <property name="rule" value="W"/>
   </properties>
  </object>
  <object id="99" gid="2147483723" x="1856" y="780" width="64" height="64">
   <properties>
    <property name="rule" value="W"/>
   </properties>
  </object>
  <object id="100" gid="75" x="1920" y="780" width="64" height="64">
   <properties>
    <property name="rule" value="W"/>
   </properties>
  </object>
  <object id="101" gid="2147483723" x="2176" y="780" width="64" height="64">
   <properties>
    <property name="rule" value="W"/>
   </properties>
  </object>
  <object id="102" gid="75" x="2240" y="780" width="64" height="64">
   <properties>
    <property name="rule" value="W"/>
   </properties>
  </object>
  <object id="103" gid="75" x="1856" y="884" width="64" height="64">
   <properties>
    <property name="rule" value="W"/>
   </properties>
  </object>
  <object id="104" gid="2147483723" x="1920" y="884" width="64" height="64">
   <properties>
    <property name="rule" value="W"/>
   </properties>
  </object>
  <object id="105" gid="75" x="2176" y="884" width="64" height="64">
   <properties>
    <property name="rule" value="W"/>
   </properties>
  </object>
  <object id="106" gid="2147483723" x="2240" y="884" width="64" height="64">
   <properties>
    <property name="rule" value="W"/>
   </properties>
  </object>
  <object id="107" gid="96" x="1802" y="730" width="64" height="64">
   <properties>
    <property name="rule" value="S"/>
   </properties>
  </object>
  <object id="108" gid="2147483744" x="2298" y="730" width="64" height="64">
   <properties>
    <property name="rule" value="S"/>
   </properties>
  </object>
  <object id="109" gid="74" x="1998.96" y="580.646" width="64" height="64">
   <properties>
    <property name="rule" value="A"/>
   </properties>
  </object>
  <object id="110" gid="2147483722" x="2096.88" y="580.244" width="64" height="64">
   <properties>
    <property name="rule" value="A"/>
   </properties>
  </object>
  <object id="111" gid="20" x="1796" y="196" width="64" height="64">
   <properties>
    <property name="rule" value="E"/>
   </properties>
  </object>
  <object id="112" gid="37" x="1804" y="538" width="64" height="64">
   <properties>
    <property name="rule" value="E"/>
   </properties>
  </object>
  <object id="113" gid="92" x="2288" y="544" width="64" height="64">
   <properties>
    <property name="rule" value="E"/>
   </properties>
  </object>
  <object id="114" gid="44" x="1812" y="966" width="64" height="64">
   <properties>
    <property name="rule" value="E"/>
   </properties>
  </object>
  <object id="115" gid="36" x="2284" y="964" width="64" height="64">
   <properties>
    <property name="rule" value="E"/>
   </properties>
  </object>
  <object id="116" gid="20" x="2304.84" y="349.494" width="64" height="64">
   <properties>
    <property name="rule" value="E"/>
   </properties>
  </object>
  <object id="117" gid="20" x="2272.27" y="382.062" width="64" height="64">
   <properties>
    <property name="rule" value="E"/>
   </properties>
  </object>
  <object id="118" gid="36" x="2012.61" y="657.562" width="64" height="64">
   <properties>
    <property name="rule" value="E"/>
   </properties>
  </object>
  <object id="119" gid="96" x="2134.94" y="423.43" width="64" height="64">
   <properties>
    <property name="rule" value="R"/>
   </properties>
  </object>
  <object id="120" gid="96" x="1958.94" y="423.43" width="64" height="64">
   <properties>
    <property name="rule" value="R"/>
   </properties>
  </object>
  <object id="121" gid="96" x="2134.06" y="577.464" width="64" height="64">
   <properties>
    <property name="rule" value="R"/>
   </properties>
  </object>
  <object id="122" gid="96" x="1958.06" y="577.464" width="64" height="64">
   <properties>
    <property name="rule" value="R"/>
   </properties>
  </object>
  <object id="123" gid="99" x="1920" y="608" width="64" height="64">
   <properties>
    <property name="rule" value="G"/>
   </properties>
  </object>
  <object id="124" gid="99" x="1984" y="608" width="64" height="64">
   <properties>
    <property name="rule" value="G"/>
   </properties>
  </object>
  <object id="125" gid="99" x="2112" y="608" width="64" height="64">
   <properties>
    <property name="rule" value="G"/>
   </properties>
  </object>
  <object id="126" gid="99" x="2176" y="608" width="64" height="64">
   <properties>
    <property name="rule" value="G"/>
   </properties>
  </object>
  <object id="127" gid="62" x="1952.45" y="242.171" width="128" height="128"/>
  <object id="128" gid="68" x="1984" y="330" width="192" height="192">
   <properties>
    <property name="rule" value="T"/>
   </properties>
  </object>
  <object id="129" gid="25" x="134.4" y="1107.2" width="64" height="64">
   <properties>
    <property name="rule" value="S"/>
   </properties>
  </object>
  <object id="130" gid="25" x="134.4" y="1177.6" width="64" height="64">
   <properties>
    <property name="rule" value="S"/>
   </properties>
  </object>
  <object id="131" gid="25" x="134.4" y="1318.4" width="64" height="64">
   <properties>
    <property name="rule" value="S"/>
   </properties>
  </object>
  <object id="132" gid="25" x="134.4" y="1459.2" width="64" height="64">
   <properties>
    <property name="rule" value="S"/>
   </properties>
  </object>
  <object id="133" gid="26" x="134.4" y="1248" width="64" height="64">
   <properties>
    <property name="rule" value="S"/>
   </properties>
  </object>
  <object id="134" gid="26" x="134.4" y="1388.8" width="64" height="64">
   <properties>
    <property name="rule" value="S"/>
   </properties>
  </object>
  <object id="135" gid="2147483673" x="825.6" y="1107.2" width="64" height="64">
   <properties>
    <property name="rule" value="S"/>
   </properties>
  </object>
  <object id="136" gid="2147483673" x="825.6" y="1248" width="64" height="64">
   <properties>
    <property name="rule" value="S"/>
   </properties>
  </object>
  <object id="137" gid="2147483673" x="825.6" y="1388.8" width="64" height="64">
   <properties>
    <property name="rule" value="S"/>
   </properties>
  </object>
  <object id="139" gid="2147483674" x="825.6" y="1318.4" width="64" height="64">
   <properties>
    <property name="rule" value="S"/>
   </properties>
  </object>
  <object id="140" gid="65" x="358.4" y="1241.6" width="192" height="192">
   <properties>
    <property name="rule" value="A"/>
   </properties>
  </object>
  <object id="158" gid="24" x="337.111" y="1252.44" width="64" height="64">
   <properties>
    <property name="rule" value="F"/>
   </properties>
  </object>
  <object id="159" gid="23" x="575.992" y="1086.64" width="64" height="64">
   <properties>
    <property name="rule" value="F"/>
   </properties>
  </object>
  <object id="160" gid="2147483652" x="253.228" y="1598" width="64" height="64">
   <properties>
    <property name="rule" value="F"/>
   </properties>
  </object>
  <object id="161" gid="2147483719" x="761.6" y="1161.6" width="128" height="128">
   <properties>
    <property name="rule" value="A"/>
   </properties>
  </object>
  <object id="162" gid="30" x="723.2" y="1216" width="64" height="64">
   <properties>
    <property name="rule" value="E"/>
   </properties>
  </object>
  <object id="164" gid="45" x="678.4" y="1260.8" width="64" height="64">
   <properties>
    <property name="rule" value="E"/>
   </properties>
  </object>
  <object id="165" gid="2147483681" x="742.4" y="1305.6" width="64" height="64">
   <properties>
    <property name="rule" value="E"/>
   </properties>
  </object>
  <object id="166" gid="93" x="652.8" y="1107.2" width="64" height="64">
   <properties>
    <property name="rule" value="S"/>
   </properties>
  </object>
  <object id="168" gid="2147483710" x="755.2" y="1600" width="128" height="128">
   <properties>
    <property name="rule" value="E"/>
   </properties>
  </object>
  <object id="169" gid="76" x="601.6" y="1593.6" width="64" height="64">
   <properties>
    <property name="rule" value="E"/>
   </properties>
  </object>
  <object id="170" gid="2147483750" x="665.6" y="1600" width="64" height="64">
   <properties>
    <property name="rule" value="E"/>
   </properties>
  </object>
  <object id="171" gid="21" x="128" y="1600" width="64" height="64">
   <properties>
    <property name="rule" value="E"/>
   </properties>
  </object>
  <object id="172" gid="2147483668" x="832" y="1600" width="64" height="64">
   <properties>
    <property name="rule" value="E"/>
   </properties>
  </object>
  <object id="174" gid="100" x="134.4" y="1593.6" width="64" height="64">
   <properties>
    <property name="rule" value="E"/>
   </properties>
  </object>
  <object id="175" gid="2147483749" x="832" y="1465.6" width="64" height="64">
   <properties>
    <property name="rule" value="E"/>
   </properties>
  </object>
  <object id="177" gid="2147483689" x="204.8" y="1369.6" width="64" height="64">
   <properties>
    <property name="rule" value="E"/>
   </properties>
  </object>
  <object id="179" gid="53" x="374.6" y="2176" width="192" height="192">
   <properties>
    <property name="rule" value="A"/>
   </properties>
  </object>
  <object id="180" gid="55" x="640.479" y="1920.3" width="192" height="192">
   <properties>
    <property name="rule" value="A"/>
   </properties>
  </object>
  <object id="184" gid="80" x="634.283" y="1807.12" width="64" height="64">
   <properties>
    <property name="rule" value="F"/>
   </properties>
  </object>
  <object id="186" gid="83" x="518.36" y="2205.75" width="64" height="64">
   <properties>
    <property name="rule" value="F"/>
   </properties>
  </object>
  <object id="188" gid="84" x="518.652" y="2189.95" width="64" height="64">
   <properties>
    <property name="rule" value="F"/>
   </properties>
  </object>
  <object id="189" gid="2147483732" x="448" y="2240" width="64" height="64">
   <properties>
    <property name="rule" value="F"/>
   </properties>
  </object>
  <object id="193" gid="2147483741" x="704" y="2368" width="64" height="64">
   <properties>
    <property name="rule" value="S"/>
   </properties>
  </object>
  <object id="198" gid="74" x="696.379" y="1981.35" width="64" height="64">
   <properties>
    <property name="rule" value="F"/>
   </properties>
  </object>
  <object id="199" gid="2147483722" x="327.793" y="1959.69" width="64" height="64">
   <properties>
    <property name="rule" value="F"/>
   </properties>
  </object>
  <object id="200" gid="78" x="204.058" y="2216.3" width="64" height="64">
   <properties>
    <property name="rule" value="F"/>
   </properties>
  </object>
  <object id="201" gid="2147483726" x="769.855" y="1935.13" width="64" height="64">
   <properties>
    <property name="rule" value="F"/>
   </properties>
  </object>
  <object id="202" gid="104" x="320.379" y="2431.25" width="64" height="64">
   <properties>
    <property name="rule" value="F"/>
   </properties>
  </object>
  <object id="203" gid="2147483753" x="576.75" y="2431.25" width="64" height="64">
   <properties>
    <property name="rule" value="F"/>
   </properties>
  </object>
  <object id="204" gid="86" x="450.258" y="2428.99" width="64" height="64">
   <properties>
    <property name="rule" value="F"/>
   </properties>
  </object>
  <object id="208" gid="2147483684" x="550.4" y="2265.6" width="64" height="64">
   <properties>
    <property name="rule" value="E"/>
   </properties>
  </object>
  <object id="209" gid="33" x="540.697" y="1949.6" width="64" height="64">
   <properties>
    <property name="rule" value="E"/>
   </properties>
  </object>
  <object id="210" gid="2147483690" x="743.071" y="2015.68" width="64" height="64">
   <properties>
    <property name="rule" value="E"/>
   </properties>
  </object>
  <object id="211" gid="21" x="128" y="1792" width="64" height="64">
   <properties>
    <property name="rule" value="E"/>
   </properties>
  </object>
  <object id="212" gid="2147483668" x="768" y="1792" width="64" height="64">
   <properties>
    <property name="rule" value="E"/>
   </properties>
  </object>
  <object id="213" gid="20" x="128" y="2432" width="64" height="64">
   <properties>
    <property name="rule" value="E"/>
   </properties>
  </object>
  <object id="214" gid="2147483670" x="768" y="2432" width="64" height="64">
   <properties>
    <property name="rule" value="E"/>
   </properties>
  </object>
  <object id="216" gid="2147483749" x="766.871" y="2249.03" width="64" height="64">
   <properties>
    <property name="rule" value="E"/>
   </properties>
  </object>
  <object id="217" gid="56" x="2080" y="2112" width="128" height="128">
   <properties>
    <property name="rule" value="A"/>
   </properties>
  </object>
  <object id="218" gid="28" x="1793.12" y="1982.62" width="64" height="64">
   <properties>
    <property name="rule" value="S"/>
   </properties>
  </object>
  <object id="219" gid="28" x="1794.34" y="2113.04" width="64" height="64">
   <properties>
    <property name="rule" value="S"/>
   </properties>
  </object>
  <object id="220" gid="28" x="1793.12" y="2242.25" width="64" height="64">
   <properties>
    <property name="rule" value="S"/>
   </properties>
  </object>
  <object id="222" gid="2147483676" x="2433.3" y="1855.48" width="64" height="64">
   <properties>
    <property name="rule" value="S"/>
   </properties>
  </object>
  <object id="223" gid="2147483676" x="2430.88" y="2239.83" width="64" height="64">
   <properties>
    <property name="rule" value="S"/>
   </properties>
  </object>
  <object id="224" gid="2147483676" x="2432.09" y="1985.21" width="64" height="64">
   <properties>
    <property name="rule" value="S"/>
   </properties>
  </object>
  <object id="227" gid="99" x="1856" y="1792" width="64" height="64">
   <properties>
    <property name="rule" value="P"/>
   </properties>
  </object>
  <object id="228" gid="99" x="1920" y="1792" width="64" height="64">
   <properties>
    <property name="rule" value="P"/>
   </properties>
  </object>
  <object id="229" gid="99" x="2238.27" y="1532.89" width="64" height="64">
   <properties>
    <property name="rule" value="P"/>
   </properties>
  </object>
  <object id="230" gid="99" x="2302.27" y="1532.89" width="64" height="64">
   <properties>
    <property name="rule" value="P"/>
   </properties>
  </object>
  <object id="231" gid="2147483747" x="2176" y="1792" width="64" height="64">
   <properties>
    <property name="rule" value="P"/>
   </properties>
  </object>
  <object id="232" gid="2147483747" x="2240" y="1792" width="64" height="64">
   <properties>
    <property name="rule" value="P"/>
   </properties>
  </object>
  <object id="233" gid="2147483747" x="2304" y="1792" width="64" height="64">
   <properties>
    <property name="rule" value="P"/>
   </properties>
  </object>
  <object id="234" gid="2147483747" x="2368" y="1792" width="64" height="64">
   <properties>
    <property name="rule" value="P"/>
   </properties>
  </object>
  <object id="235" gid="2147483747" x="2432" y="1792" width="64" height="64">
   <properties>
    <property name="rule" value="P"/>
   </properties>
  </object>
  <object id="236" gid="99" x="1792" y="2368" width="64" height="64">
   <properties>
    <property name="rule" value="P"/>
   </properties>
  </object>
  <object id="237" gid="99" x="1856" y="2368" width="64" height="64">
   <properties>
    <property name="rule" value="P"/>
   </properties>
  </object>
  <object id="238" gid="99" x="1920" y="2368" width="64" height="64">
   <properties>
    <property name="rule" value="P"/>
   </properties>
  </object>
  <object id="239" gid="2147483747" x="2304" y="2368" width="64" height="64">
   <properties>
    <property name="rule" value="P"/>
   </properties>
  </object>
  <object id="240" gid="2147483747" x="2368" y="2368" width="64" height="64">
   <properties>
    <property name="rule" value="P"/>
   </properties>
  </object>
  <object id="241" gid="2147483747" x="2432" y="2368" width="64" height="64">
   <properties>
    <property name="rule" value="P"/>
   </properties>
  </object>
  <object id="242" gid="77" x="2068.06" y="2004.93" width="64" height="64">
   <properties>
    <property name="rule" value="E"/>
   </properties>
  </object>
  <object id="243" gid="2147483725" x="2154.21" y="2015.83" width="64" height="64">
   <properties>
    <property name="rule" value="E"/>
   </properties>
  </object>
  <object id="244" gid="77" x="2128.6" y="2177.9" width="64" height="64">
   <properties>
    <property name="rule" value="E"/>
   </properties>
  </object>
  <object id="245" gid="2147483725" x="2188.11" y="2147.63" width="64" height="64">
   <properties>
    <property name="rule" value="E"/>
   </properties>
  </object>
  <object id="246" gid="76" x="2037.45" y="2030.01" width="64" height="64">
   <properties>
    <property name="rule" value="E"/>
   </properties>
  </object>
  <object id="247" gid="2147483724" x="2211.46" y="2033.64" width="64" height="64">
   <properties>
    <property name="rule" value="E"/>
   </properties>
  </object>
  <object id="248" gid="76" x="2083.8" y="2147.98" width="64" height="64">
   <properties>
    <property name="rule" value="E"/>
   </properties>
  </object>
  <object id="249" gid="2147483724" x="2215.96" y="2087.44" width="64" height="64">
   <properties>
    <property name="rule" value="E"/>
   </properties>
  </object>
  <object id="250" gid="102" x="2125.66" y="2005.62" width="64" height="64">
   <properties>
    <property name="rule" value="E"/>
   </properties>
  </object>
  <object id="251" gid="2147483750" x="2123.24" y="2072.04" width="64" height="64">
   <properties>
    <property name="rule" value="E"/>
   </properties>
  </object>
  <object id="252" gid="13" x="2031.22" y="2108.54" width="64" height="64">
   <properties>
    <property name="rule" value="E"/>
   </properties>
  </object>
  <object id="253" gid="2147483661" x="2166.83" y="2177.9" width="64" height="64">
   <properties>
    <property name="rule" value="E"/>
   </properties>
  </object>
  <object id="254" gid="102" x="1984.35" y="2174.62" width="64" height="64">
   <properties>
    <property name="rule" value="E"/>
   </properties>
  </object>
  <object id="255" gid="2147483661" x="2249.51" y="2055.09" width="64" height="64">
   <properties>
    <property name="rule" value="E"/>
   </properties>
  </object>
  <object id="256" gid="76" x="1932.8" y="1932.8" width="64" height="64">
   <properties>
    <property name="rule" value="E"/>
   </properties>
  </object>
  <object id="258" gid="77" x="2018.07" y="2069.62" width="64" height="64">
   <properties>
    <property name="rule" value="E"/>
   </properties>
  </object>
  <object id="259" gid="2147483724" x="2344.13" y="1964.8" width="64" height="64">
   <properties>
    <property name="rule" value="E"/>
   </properties>
  </object>
  <object id="263" gid="90" x="2115.8" y="2365.75" width="64" height="64">
   <properties>
    <property name="rule" value="F"/>
   </properties>
  </object>
  <object id="264" gid="2147483738" x="2052.5" y="2365.75" width="64" height="64">
   <properties>
    <property name="rule" value="F"/>
   </properties>
  </object>
  <object id="265" gid="82" x="2010.64" y="1984.17" width="64" height="64">
   <properties>
    <property name="rule" value="F"/>
   </properties>
  </object>
  <object id="266" gid="2147483732" x="2286.18" y="2112.35" width="64" height="64">
   <properties>
    <property name="rule" value="F"/>
   </properties>
  </object>
  <object id="269" gid="22" x="1792" y="2368" width="64" height="64">
   <properties>
    <property name="rule" value="E"/>
   </properties>
  </object>
  <object id="270" gid="2147483651" x="2432" y="2368" width="64" height="64">
   <properties>
    <property name="rule" value="E"/>
   </properties>
  </object>
  <object id="271" gid="36" x="1881.6" y="2086.4" width="64" height="64">
   <properties>
    <property name="rule" value="E"/>
   </properties>
  </object>
  <object id="272" gid="2147483684" x="2342.4" y="2124.8" width="64" height="64">
   <properties>
    <property name="rule" value="E"/>
   </properties>
  </object>
  <object id="273" gid="100" x="1798.4" y="2361.6" width="64" height="64">
   <properties>
    <property name="rule" value="E"/>
   </properties>
  </object>
  <object id="274" gid="2147483749" x="2432" y="2073.6" width="64" height="64">
   <properties>
    <property name="rule" value="E"/>
   </properties>
  </object>
  <object id="275" gid="99" x="2108.18" y="1532.56" width="64" height="64">
   <properties>
    <property name="rule" value="P"/>
   </properties>
  </object>
  <object id="276" gid="99" x="2172.18" y="1532.56" width="64" height="64">
   <properties>
    <property name="rule" value="P"/>
   </properties>
  </object>
  <object id="279" gid="99" x="1792.68" y="1791.47" width="64" height="64">
   <properties>
    <property name="rule" value="P"/>
   </properties>
  </object>
  <object id="281" gid="90" x="2177.71" y="2366.6" width="64" height="64">
   <properties>
    <property name="rule" value="F"/>
   </properties>
  </object>
  <object id="282" gid="28" x="1792.68" y="1854.43" width="64" height="64">
   <properties>
    <property name="rule" value="S"/>
   </properties>
  </object>
  <object id="283" gid="2147483676" x="2431.98" y="2111.12" width="64" height="64">
   <properties>
    <property name="rule" value="S"/>
   </properties>
  </object>
  <object id="284" gid="2147483732" x="2304.84" y="2137.75" width="64" height="64">
   <properties>
    <property name="rule" value="F"/>
   </properties>
  </object>
  <object id="285" gid="85" x="424.933" y="546" width="64" height="64">
   <properties>
    <property name="rule" value="F"/>
   </properties>
  </object>
  <object id="286" gid="2147483733" x="535.066" y="546" width="64" height="64">
   <properties>
    <property name="rule" value="F"/>
   </properties>
  </object>
  <object id="287" gid="85" x="424.933" y="602" width="64" height="64">
   <properties>
    <property name="rule" value="F"/>
   </properties>
  </object>
  <object id="288" gid="2147483733" x="535.066" y="602" width="64" height="64">
   <properties>
    <property name="rule" value="F"/>
   </properties>
  </object>
  <object id="30" gid="2147483738" x="691.2" y="384" width="64" height="64">
   <properties>
    <property name="rule" value="S"/>
   </properties>
  </object>
  <object id="289" gid="2147483676" x="193.594" y="193.251" width="64" height="64">
   <properties>
    <property name="rule" value="F"/>
   </properties>
  </object>
  <object id="290" gid="2147483676" x="256.707" y="193.251" width="64" height="64">
   <properties>
    <property name="rule" value="F"/>
   </properties>
  </object>
  <object id="291" gid="2147483676" x="706.12" y="190.962" width="64" height="64">
   <properties>
    <property name="rule" value="F"/>
   </properties>
  </object>
  <object id="292" gid="2147483676" x="772.782" y="190.855" width="64" height="64">
   <properties>
    <property name="rule" value="F"/>
   </properties>
  </object>
  <object id="293" gid="2147483676" x="835.895" y="190.855" width="64" height="64">
   <properties>
    <property name="rule" value="F"/>
   </properties>
  </object>
  <object id="294" gid="2147483676" x="319.388" y="190.962" width="64" height="64">
   <properties>
    <property name="rule" value="F"/>
   </properties>
  </object>
  <object id="295" gid="2147483676" x="386.05" y="190.855" width="64" height="64">
   <properties>
    <property name="rule" value="F"/>
   </properties>
  </object>
  <object id="296" gid="2147483676" x="449.163" y="190.855" width="64" height="64">
   <properties>
    <property name="rule" value="F"/>
   </properties>
  </object>
  <object id="297" gid="2147483676" x="511.411" y="188.276" width="64" height="64">
   <properties>
    <property name="rule" value="F"/>
   </properties>
  </object>
  <object id="298" gid="2147483676" x="578.073" y="188.169" width="64" height="64">
   <properties>
    <property name="rule" value="F"/>
   </properties>
  </object>
  <object id="299" gid="2147483676" x="641.186" y="188.169" width="64" height="64">
   <properties>
    <property name="rule" value="F"/>
   </properties>
  </object>
  <object id="1" gid="68" x="416" y="332.8" width="192" height="192">
   <properties>
    <property name="rule" value="A"/>
   </properties>
  </object>
  <object id="138" gid="2147483674" x="825.6" y="1177.6" width="64" height="64">
   <properties>
    <property name="rule" value="S"/>
   </properties>
  </object>
  <object id="301" gid="75" x="512.385" y="1344.39" width="64" height="64">
   <properties>
    <property name="rule" value="P"/>
   </properties>
  </object>
  <object id="302" gid="2147483723" x="578.442" y="1344.39" width="64" height="64">
   <properties>
    <property name="rule" value="P"/>
   </properties>
  </object>
  <object id="303" gid="75" x="382.131" y="1344.39" width="64" height="64">
   <properties>
    <property name="rule" value="P"/>
   </properties>
  </object>
  <object id="304" gid="2147483723" x="448.188" y="1344.39" width="64" height="64">
   <properties>
    <property name="rule" value="P"/>
   </properties>
  </object>
  <object id="305" gid="75" x="513.057" y="1473.3" width="64" height="64">
   <properties>
    <property name="rule" value="P"/>
   </properties>
  </object>
  <object id="306" gid="2147483723" x="579.114" y="1473.3" width="64" height="64">
   <properties>
    <property name="rule" value="P"/>
   </properties>
  </object>
  <object id="307" gid="75" x="382.803" y="1473.3" width="64" height="64">
   <properties>
    <property name="rule" value="P"/>
   </properties>
  </object>
  <object id="308" gid="2147483723" x="448.86" y="1473.3" width="64" height="64">
   <properties>
    <property name="rule" value="P"/>
   </properties>
  </object>
  <object id="178" gid="64" x="382.657" y="1889.2" width="192" height="192" rotation="90">
   <properties>
    <property name="rule" value="A"/>
   </properties>
  </object>
  <object id="215" gid="100" x="325.231" y="2066.85" width="64" height="64">
   <properties>
    <property name="rule" value="E"/>
   </properties>
  </object>
  <object id="309" gid="84" x="577.756" y="2113.44" width="64" height="64">
   <properties>
    <property name="rule" value="F"/>
   </properties>
  </object>
  <object id="310" gid="2147483732" x="363.212" y="2195.87" width="64" height="64">
   <properties>
    <property name="rule" value="F"/>
   </properties>
  </object>
  <object id="311" gid="2147483732" x="319.174" y="2112.31" width="64" height="64">
   <properties>
    <property name="rule" value="F"/>
   </properties>
  </object>
  <object id="206" gid="2147483750" x="480.036" y="1995.77" width="64" height="64">
   <properties>
    <property name="rule" value="E"/>
   </properties>
  </object>
  <object id="205" gid="77" x="439.677" y="2026.25" width="64" height="64">
   <properties>
    <property name="rule" value="E"/>
   </properties>
  </object>
  <object id="183" gid="2147483733" x="340.837" y="2093.76" width="64" height="64">
   <properties>
    <property name="rule" value="F"/>
   </properties>
  </object>
  <object id="312" gid="81" x="535.104" y="2081.87" width="62.3669" height="76.4446" rotation="2.24811"/>
  <object id="313" gid="82" x="555.017" y="2097.07" width="49.6806" height="65.3966"/>
  <object id="315" gid="79" x="295.374" y="2122.69" width="62.7773" height="66.0515" rotation="20"/>
  <object id="316" gid="80" x="560.91" y="2137.01" width="68.016" height="75.2192"/>
  <object id="317" gid="2147483732" x="383.166" y="2217.36" width="64" height="64">
   <properties>
    <property name="rule" value="F"/>
   </properties>
  </object>
  <object id="318" gid="2147483732" x="338.637" y="2116.52" width="64" height="64">
   <properties>
    <property name="rule" value="F"/>
   </properties>
  </object>
  <object id="319" gid="83" x="362.72" y="2128.35" width="64" height="64">
   <properties>
    <property name="rule" value="F"/>
   </properties>
  </object>
  <object id="320" gid="84" x="363.012" y="2112.55" width="64" height="64">
   <properties>
    <property name="rule" value="F"/>
   </properties>
  </object>
  <object id="321" gid="80" x="396.874" y="2239.91" width="68.016" height="75.2192"/>
  <object id="322" gid="2147483732" x="464.366" y="2227.18" width="64" height="64">
   <properties>
    <property name="rule" value="F"/>
   </properties>
  </object>
  <object id="323" gid="82" x="370.026" y="2231.07" width="49.6806" height="65.3966"/>
  <object id="324" gid="84" x="596" y="2227.5" width="64" height="64">
   <properties>
    <property name="rule" value="F"/>
   </properties>
  </object>
  <object id="327" gid="108" x="1570.82" y="1471.94" width="192" height="192">
   <properties>
    <property name="rule" value="A"/>
   </properties>
  </object>
  <object id="328" gid="108" x="1504" y="1381" width="192" height="192" rotation="90">
   <properties>
    <property name="rule" value="A"/>
   </properties>
  </object>
  <object id="329" gid="108" x="1382" y="1629" width="192" height="192">
   <properties>
    <property name="rule" value="A"/>
   </properties>
  </object>
  <object id="331" gid="108" x="1441" y="2143" width="192" height="192">
   <properties>
    <property name="rule" value="A"/>
   </properties>
  </object>
  <object id="332" gid="108" x="1563" y="1893" width="192" height="192" rotation="90">
   <properties>
    <property name="rule" value="A"/>
   </properties>
  </object>
  <object id="333" gid="108" x="1380" y="2077" width="192" height="192" rotation="90">
   <properties>
    <property name="rule" value="A"/>
   </properties>
  </object>
  <object id="334" gid="108" x="1245" y="2078" width="192" height="192" rotation="90">
   <properties>
    <property name="rule" value="A"/>
   </properties>
  </object>
  <object id="335" gid="108" x="1186" y="2143" width="192" height="192">
   <properties>
    <property name="rule" value="A"/>
   </properties>
  </object>
  <object id="337" gid="108" x="1125.33" y="1826.67" width="192" height="192" rotation="90">
   <properties>
    <property name="rule" value="A"/>
   </properties>
  </object>
  <object id="338" gid="108" x="1599.83" y="415.379" width="192" height="192" rotation="90">
   <properties>
    <property name="rule" value="A"/>
   </properties>
  </object>
  <object id="339" gid="108" x="1437" y="415" width="192" height="192" rotation="90">
   <properties>
    <property name="rule" value="A"/>
   </properties>
  </object>
  <object id="340" gid="108" x="1315.77" y="547.894" width="192" height="192">
   <properties>
    <property name="rule" value="A"/>
   </properties>
  </object>
  <object id="341" gid="108" x="1984" y="1153.33" width="192" height="192">
   <properties>
    <property name="rule" value="A"/>
   </properties>
  </object>
 </objectgroup>
</map>
