<?xml version="1.0" encoding="UTF-8"?>
<map version="1.10" tiledversion="1.12.2" orientation="orthogonal" renderorder="right-down" width="30" height="28" tilewidth="64" tileheight="64" infinite="0" nextlayerid="7" nextobjectid="164">
 <tileset firstgid="1" name="floor_gravel" tilewidth="64" tileheight="64" tilecount="1" columns="1">
  <image source="../Shared/tiles/floor_gravel_64.png" width="64" height="64"/>
 </tileset>
 <tileset firstgid="2" name="one_lantern_objects" tilewidth="96" tileheight="96" tilecount="91" columns="0">
  <grid orientation="orthogonal" width="1" height="1"/>
  <tile id="0">
   <image source="../Shared/objects/obj_artifact_bell.png" width="32" height="32"/>
  </tile>
  <tile id="2">
   <image source="../Shared/objects/obj_artifact_crest.png" width="32" height="32"/>
  </tile>
  <tile id="4">
   <image source="../Shared/objects/obj_artifact_mask.png" width="32" height="32"/>
  </tile>
  <tile id="6">
   <image source="../Shared/objects/obj_artifact_seal.png" width="32" height="32"/>
  </tile>
  <tile id="7">
   <image source="../Shared/objects/obj_artifact_seal_buried.png" width="32" height="32"/>
  </tile>
  <tile id="8">
   <image source="../Shared/objects/obj_cobweb_corner.png" width="32" height="32"/>
  </tile>
  <tile id="9">
   <image source="../Shared/objects/obj_cobweb_radial.png" width="32" height="32"/>
  </tile>
  <tile id="10">
   <image source="../Shared/objects/obj_cobweb_torn.png" width="32" height="32"/>
  </tile>
  <tile id="11">
   <image source="../Shared/objects/obj_container_chest.png" width="32" height="32"/>
  </tile>
  <tile id="12">
   <image source="../Shared/objects/obj_container_crate.png" width="32" height="32"/>
  </tile>
  <tile id="13">
   <image source="../Shared/objects/obj_container_drawer_closed.png" width="32" height="32"/>
  </tile>
  <tile id="14">
   <image source="../Shared/objects/obj_container_drawer_open.png" width="32" height="32"/>
  </tile>
  <tile id="15">
   <image source="../Shared/objects/obj_container_sarcophagus_closed.png" width="32" height="32"/>
  </tile>
  <tile id="16">
   <image source="../Shared/objects/obj_container_sarcophagus_open.png" width="32" height="32"/>
  </tile>
  <tile id="17">
   <image source="../Shared/objects/obj_debris_arch.png" width="32" height="32"/>
  </tile>
  <tile id="18">
   <image source="../Shared/objects/obj_debris_blocks.png" width="32" height="32"/>
  </tile>
  <tile id="19">
   <image source="../Shared/objects/obj_debris_blocks_b.png" width="32" height="32"/>
  </tile>
  <tile id="20">
   <image source="../Shared/objects/obj_debris_capital.png" width="32" height="32"/>
  </tile>
  <tile id="21">
   <image source="../Shared/objects/obj_debris_fragments.png" width="32" height="32"/>
  </tile>
  <tile id="22">
   <image source="../Shared/objects/obj_debris_frame.png" width="32" height="32"/>
  </tile>
  <tile id="23">
   <image source="../Shared/objects/obj_debris_frame_b.png" width="32" height="32"/>
  </tile>
  <tile id="24">
   <image source="../Shared/objects/obj_debris_gravel_a.png" width="32" height="32"/>
  </tile>
  <tile id="25">
   <image source="../Shared/objects/obj_debris_gravel_b.png" width="32" height="32"/>
  </tile>
  <tile id="26">
   <image source="../Shared/objects/obj_debris_masonry.png" width="32" height="32"/>
  </tile>
  <tile id="27">
   <image source="../Shared/objects/obj_debris_mossy.png" width="32" height="32"/>
  </tile>
  <tile id="28">
   <image source="../Shared/objects/obj_debris_pile.png" width="32" height="32"/>
  </tile>
  <tile id="29">
   <image source="../Shared/objects/obj_debris_planks.png" width="32" height="32"/>
  </tile>
  <tile id="30">
   <image source="../Shared/objects/obj_debris_shards.png" width="32" height="32"/>
  </tile>
  <tile id="32">
   <image source="../Shared/objects/obj_debris_slabs.png" width="32" height="32"/>
  </tile>
  <tile id="33">
   <image source="../Shared/objects/obj_debris_stone.png" width="32" height="32"/>
  </tile>
  <tile id="34">
   <image source="../Shared/objects/obj_debris_stones.png" width="32" height="32"/>
  </tile>
  <tile id="35">
   <image source="../Shared/objects/obj_debris_structure.png" width="32" height="32"/>
  </tile>
  <tile id="36">
   <image source="../Shared/objects/obj_debris_timber.png" width="32" height="32"/>
  </tile>
  <tile id="40">
   <image source="../Shared/objects/obj_exit_locked.png" width="32" height="32"/>
  </tile>
  <tile id="41">
   <image source="../Shared/objects/obj_exit_open.png" width="32" height="32"/>
  </tile>
  <tile id="42">
   <image source="../Shared/objects/obj_large_altar_low.png" width="64" height="64"/>
  </tile>
  <tile id="43">
   <image source="../Shared/objects/obj_large_arch_fallen.png" width="64" height="64"/>
  </tile>
  <tile id="44">
   <image source="../Shared/objects/obj_large_benches_pair.png" width="64" height="64"/>
  </tile>
  <tile id="46">
   <image source="../Shared/objects/obj_large_carpet_round_seal.png" width="96" height="96"/>
  </tile>
  <tile id="47">
   <image source="../Shared/objects/obj_large_carpet_runner.png" width="96" height="96"/>
  </tile>
  <tile id="48">
   <image source="../Shared/objects/obj_large_firepit.png" width="96" height="96"/>
  </tile>
  <tile id="49">
   <image source="../Shared/objects/obj_large_lid_pit.png" width="64" height="64"/>
  </tile>
  <tile id="50">
   <image source="../Shared/objects/obj_large_offering_table.png" width="64" height="64"/>
  </tile>
  <tile id="51">
   <image source="../Shared/objects/obj_large_pillar_broken_pair.png" width="64" height="64"/>
  </tile>
  <tile id="52">
   <image source="../Shared/objects/obj_large_pillar_fallen_long.png" width="64" height="64"/>
  </tile>
  <tile id="53">
   <image source="../Shared/objects/obj_large_pillar_fallen_short.png" width="64" height="64"/>
  </tile>
  <tile id="54">
   <image source="../Shared/objects/obj_large_pillar_pile.png" width="64" height="64"/>
  </tile>
  <tile id="55">
   <image source="../Shared/objects/obj_large_rubble_heap.png" width="64" height="64"/>
  </tile>
  <tile id="56">
   <image source="../Shared/objects/obj_large_rubble_mossy.png" width="64" height="64"/>
  </tile>
  <tile id="57">
   <image source="../Shared/objects/obj_large_sacrificial_slab.png" width="96" height="96"/>
  </tile>
  <tile id="58">
   <image source="../Shared/objects/obj_large_shelf_fallen.png" width="96" height="96"/>
  </tile>
  <tile id="59">
   <image source="../Shared/objects/obj_large_statue_fallen.png" width="96" height="96"/>
  </tile>
  <tile id="60">
   <image source="../Shared/objects/obj_large_statue_kneeling.png" width="96" height="96"/>
  </tile>
  <tile id="61">
   <image source="../Shared/objects/obj_large_steps.png" width="64" height="64"/>
  </tile>
  <tile id="62">
   <image source="../Shared/objects/obj_large_trough.png" width="64" height="64"/>
  </tile>
  <tile id="63">
   <image source="../Shared/objects/obj_large_wall_collapse.png" width="64" height="64"/>
  </tile>
  <tile id="64">
   <image source="../Shared/objects/obj_noise_glass.png" width="32" height="32"/>
  </tile>
  <tile id="65">
   <image source="../Shared/objects/obj_noise_planks.png" width="32" height="32"/>
  </tile>
  <tile id="66">
   <image source="../Shared/objects/obj_prop_basin.png" width="32" height="32"/>
  </tile>
  <tile id="67">
   <image source="../Shared/objects/obj_prop_bench.png" width="32" height="32"/>
  </tile>
  <tile id="68">
   <image source="../Shared/objects/obj_prop_bones_long.png" width="32" height="32"/>
  </tile>
  <tile id="69">
   <image source="../Shared/objects/obj_prop_bones_pile.png" width="32" height="32"/>
  </tile>
  <tile id="70">
   <image source="../Shared/objects/obj_prop_bowl.png" width="32" height="32"/>
  </tile>
  <tile id="71">
   <image source="../Shared/objects/obj_prop_candle_fallen.png" width="32" height="32"/>
  </tile>
  <tile id="72">
   <image source="../Shared/objects/obj_prop_candle_holder.png" width="32" height="32"/>
  </tile>
  <tile id="73">
   <image source="../Shared/objects/obj_prop_candle_leaning.png" width="32" height="32"/>
  </tile>
  <tile id="74">
   <image source="../Shared/objects/obj_prop_candle_melted.png" width="32" height="32"/>
  </tile>
  <tile id="75">
   <image source="../Shared/objects/obj_prop_candle_short.png" width="32" height="32"/>
  </tile>
  <tile id="76">
   <image source="../Shared/objects/obj_prop_candle_stub.png" width="32" height="32"/>
  </tile>
  <tile id="77">
   <image source="../Shared/objects/obj_prop_candle_tall.png" width="32" height="32"/>
  </tile>
  <tile id="78">
   <image source="../Shared/objects/obj_prop_floor_seal.png" width="32" height="32"/>
  </tile>
  <tile id="79">
   <image source="../Shared/objects/obj_prop_floor_seal_broken.png" width="32" height="32"/>
  </tile>
  <tile id="80">
   <image source="../Shared/objects/obj_prop_floor_tile.png" width="32" height="32"/>
  </tile>
  <tile id="81">
   <image source="../Shared/objects/obj_prop_grate.png" width="32" height="32"/>
  </tile>
  <tile id="82">
   <image source="../Shared/objects/obj_prop_gravestone.png" width="32" height="32"/>
  </tile>
  <tile id="83">
   <image source="../Shared/objects/obj_prop_ledge.png" width="32" height="32"/>
  </tile>
  <tile id="84">
   <image source="../Shared/objects/obj_prop_pebbles.png" width="32" height="32"/>
  </tile>
  <tile id="85">
   <image source="../Shared/objects/obj_prop_pillar_broken.png" width="32" height="32"/>
  </tile>
  <tile id="86">
   <image source="../Shared/objects/obj_prop_pillar_capital.png" width="32" height="32"/>
  </tile>
  <tile id="87">
   <image source="../Shared/objects/obj_prop_pillar_column.png" width="32" height="32"/>
  </tile>
  <tile id="88">
   <image source="../Shared/objects/obj_prop_pillar_drum.png" width="32" height="32"/>
  </tile>
  <tile id="89">
   <image source="../Shared/objects/obj_prop_pillar_intact.png" width="32" height="32"/>
  </tile>
  <tile id="90">
   <image source="../Shared/objects/obj_prop_pillar_stump.png" width="32" height="32"/>
  </tile>
  <tile id="91">
   <image source="../Shared/objects/obj_prop_railing.png" width="32" height="32"/>
  </tile>
  <tile id="92">
   <image source="../Shared/objects/obj_prop_roots.png" width="32" height="32"/>
  </tile>
  <tile id="93">
   <image source="../Shared/objects/obj_prop_roots_stone.png" width="32" height="32"/>
  </tile>
  <tile id="94">
   <image source="../Shared/objects/obj_prop_skull.png" width="32" height="32"/>
  </tile>
  <tile id="95">
   <image source="../Shared/objects/obj_prop_step.png" width="32" height="32"/>
  </tile>
  <tile id="96">
   <image source="../Shared/objects/obj_prop_tablet_a.png" width="32" height="32"/>
  </tile>
  <tile id="97">
   <image source="../Shared/objects/obj_prop_tablet_b.png" width="32" height="32"/>
  </tile>
  <tile id="98">
   <image source="../Shared/objects/obj_prop_tablet_c.png" width="32" height="32"/>
  </tile>
 </tileset>
 <layer id="1" name="floor" width="30" height="28">
  <data encoding="csv">
0,0,0,0,0,0,0,0,0,0,0,0,0,0,0,0,0,0,0,0,0,0,0,0,0,0,0,0,0,0,
0,0,0,0,0,0,0,0,0,0,0,0,0,0,0,0,0,0,0,0,0,0,0,0,0,0,0,0,0,0,
0,0,1,1,1,1,1,1,1,0,1,1,0,0,0,0,0,0,0,0,1,1,1,1,1,1,1,1,0,0,
0,0,1,1,1,1,1,1,1,0,1,1,0,0,0,0,0,0,0,0,1,1,1,1,1,1,1,1,0,0,
0,0,1,1,1,1,1,1,1,0,1,1,0,0,0,0,0,0,0,0,1,1,1,1,1,1,1,1,0,0,
0,0,1,1,1,1,1,1,1,1,1,1,1,1,0,0,0,0,0,0,1,1,1,1,1,1,1,1,0,0,
0,0,1,1,1,1,1,1,1,1,1,1,1,1,0,0,0,0,0,0,1,1,1,1,1,1,1,1,0,0,
0,0,1,1,1,1,1,1,1,0,0,0,1,1,0,0,0,0,0,0,1,1,1,1,1,1,1,1,0,0,
0,0,1,1,1,1,1,1,1,0,0,0,1,1,1,1,1,1,0,0,1,1,1,1,1,1,1,1,0,0,
0,0,1,1,1,1,1,1,1,0,0,0,1,1,1,1,1,1,0,0,0,1,1,0,0,0,1,1,0,0,
0,0,1,1,1,1,1,1,1,0,0,0,0,0,1,1,0,0,0,0,0,1,1,0,0,0,1,1,0,0,
0,0,0,1,1,0,0,0,0,0,0,1,1,1,1,1,1,1,0,1,1,1,1,0,0,0,1,1,0,0,
0,0,0,1,1,0,0,0,0,0,0,1,1,1,1,1,1,1,0,1,1,1,1,0,0,0,1,1,0,0,
0,0,0,1,1,0,0,0,0,0,0,1,1,1,1,1,1,1,0,1,1,0,0,0,1,1,1,1,0,0,
0,0,0,1,1,1,1,0,0,0,0,1,1,1,1,1,1,1,1,1,1,0,0,0,1,1,1,1,0,0,
0,0,0,1,1,1,1,0,1,1,1,1,1,1,1,1,1,1,1,1,1,0,0,0,1,1,0,0,0,0,
0,0,0,0,0,1,1,0,1,1,1,1,1,1,1,1,1,1,0,0,0,0,0,0,1,1,1,1,0,0,
0,0,1,1,1,1,1,0,1,1,0,1,1,1,1,1,1,1,0,0,0,0,0,0,1,1,1,1,0,0,
0,0,1,1,1,1,1,0,1,1,0,0,0,0,0,1,1,1,1,1,0,0,0,0,0,0,1,1,0,0,
0,0,0,0,0,1,1,0,1,1,0,0,0,0,0,1,1,1,1,1,0,0,0,0,0,0,1,1,0,0,
0,0,1,1,1,1,1,1,1,1,0,0,0,0,0,0,0,0,1,1,1,1,1,1,1,1,1,0,0,0,
0,0,1,1,1,1,1,1,1,1,0,0,0,0,0,0,0,0,1,1,1,1,1,1,1,1,1,0,0,0,
0,0,1,1,1,1,1,1,1,1,0,0,0,0,0,0,0,0,1,1,1,1,1,1,1,1,1,0,0,0,
0,0,1,1,1,1,1,1,1,1,0,0,0,0,0,0,0,0,1,1,1,1,1,1,1,1,1,0,0,0,
0,0,1,1,1,1,1,1,1,1,0,0,0,0,0,0,0,0,1,1,1,1,1,1,1,1,1,0,0,0,
0,0,1,1,1,1,1,1,1,1,0,0,0,0,0,0,0,0,1,1,1,1,1,1,1,1,1,0,0,0,
0,0,0,0,0,0,0,0,0,0,0,0,0,0,0,0,0,0,0,0,0,0,0,0,0,0,0,0,0,0,
0,0,0,0,0,0,0,0,0,0,0,0,0,0,0,0,0,0,0,0,0,0,0,0,0,0,0,0,0,0
</data>
 </layer>
 <objectgroup draworder="index" id="2" name="room1_altar_sanctum">
  <object id="37" gid="35" x="514.228" y="598.788" width="64" height="64">
   <properties>
    <property name="rule" value="E"/>
   </properties>
  </object>
  <object id="1" gid="3221225554" x="256" y="256" width="64" height="64">
   <properties>
    <property name="rule" value="P"/>
   </properties>
  </object>
  <object id="2" gid="1073741906" x="320" y="256" width="64" height="64">
   <properties>
    <property name="rule" value="P"/>
   </properties>
  </object>
  <object id="3" gid="2147483730" x="384" y="256" width="64" height="64">
   <properties>
    <property name="rule" value="P"/>
   </properties>
  </object>
  <object id="4" gid="2147483730" x="192" y="320" width="64" height="64">
   <properties>
    <property name="rule" value="P"/>
   </properties>
  </object>
  <object id="5" gid="82" x="256" y="320" width="64" height="64">
   <properties>
    <property name="rule" value="P"/>
   </properties>
  </object>
  <object id="6" gid="3221225554" x="320" y="320" width="64" height="64">
   <properties>
    <property name="rule" value="P"/>
   </properties>
  </object>
  <object id="7" gid="1073741906" x="384" y="320" width="64" height="64">
   <properties>
    <property name="rule" value="P"/>
   </properties>
  </object>
  <object id="8" gid="2147483730" x="448" y="320" width="64" height="64">
   <properties>
    <property name="rule" value="P"/>
   </properties>
  </object>
  <object id="9" gid="1073741906" x="192" y="384" width="64" height="64">
   <properties>
    <property name="rule" value="P"/>
   </properties>
  </object>
  <object id="10" gid="2147483730" x="256" y="384" width="64" height="64">
   <properties>
    <property name="rule" value="P"/>
   </properties>
  </object>
  <object id="11" gid="82" x="320" y="384" width="64" height="64">
   <properties>
    <property name="rule" value="P"/>
   </properties>
  </object>
  <object id="12" gid="3221225554" x="384" y="384" width="64" height="64">
   <properties>
    <property name="rule" value="P"/>
   </properties>
  </object>
  <object id="13" gid="1073741906" x="448" y="384" width="64" height="64">
   <properties>
    <property name="rule" value="P"/>
   </properties>
  </object>
  <object id="14" gid="59" x="256" y="384" width="192" height="192">
   <properties>
    <property name="rule" value="F"/>
   </properties>
  </object>
  <object id="15" gid="96" x="329.75" y="275.767" width="64" height="64">
   <properties>
    <property name="rule" value="F"/>
   </properties>
  </object>
  <object id="16" gid="78" x="247.609" y="253.813" width="64" height="64">
   <properties>
    <property name="rule" value="R"/>
   </properties>
  </object>
  <object id="17" gid="77" x="229.328" y="265.237" width="64" height="64">
   <properties>
    <property name="rule" value="R"/>
   </properties>
  </object>
  <object id="18" gid="91" x="129.125" y="265.797" width="64" height="64">
   <properties>
    <property name="rule" value="S"/>
   </properties>
  </object>
  <object id="19" gid="2147483735" x="482.406" y="402.294" width="64" height="64">
   <properties>
    <property name="rule" value="S"/>
   </properties>
  </object>
  <object id="20" gid="80" x="320" y="638.248" width="64" height="64">
   <properties>
    <property name="rule" value="A"/>
   </properties>
  </object>
  <object id="21" gid="78" x="411.638" y="263.833" width="64" height="64">
   <properties>
    <property name="rule" value="R"/>
   </properties>
  </object>
  <object id="22" gid="49" x="254.172" y="382.38" width="192" height="192" rotation="90">
   <properties>
    <property name="rule" value="A"/>
   </properties>
  </object>
  <object id="23" gid="93" x="128" y="638" width="64" height="64">
   <properties>
    <property name="rule" value="S"/>
   </properties>
  </object>
  <object id="24" gid="93" x="192" y="638" width="64" height="64">
   <properties>
    <property name="rule" value="S"/>
   </properties>
  </object>
  <object id="25" gid="93" x="256" y="638" width="64" height="64">
   <properties>
    <property name="rule" value="S"/>
   </properties>
  </object>
  <object id="26" gid="93" x="384" y="638" width="64" height="64">
   <properties>
    <property name="rule" value="S"/>
   </properties>
  </object>
  <object id="27" gid="93" x="448" y="638" width="64" height="64">
   <properties>
    <property name="rule" value="S"/>
   </properties>
  </object>
  <object id="28" gid="93" x="512" y="638" width="64" height="64">
   <properties>
    <property name="rule" value="S"/>
   </properties>
  </object>
  <object id="29" gid="76" x="225.578" y="219.414" width="64" height="64">
   <properties>
    <property name="rule" value="R"/>
   </properties>
  </object>
  <object id="30" gid="2147483721" x="212.083" y="280.522" width="64" height="64">
   <properties>
    <property name="rule" value="R"/>
   </properties>
  </object>
  <object id="31" gid="94" x="138" y="480" width="64" height="64">
   <properties>
    <property name="rule" value="E"/>
   </properties>
  </object>
  <object id="32" gid="2147483743" x="508.702" y="465.72" width="64" height="64">
   <properties>
    <property name="rule" value="E"/>
   </properties>
  </object>
  <object id="33" gid="36" x="140" y="575" width="64" height="64">
   <properties>
    <property name="rule" value="E"/>
   </properties>
  </object>
  <object id="34" gid="26" x="180" y="601" width="64" height="64">
   <properties>
    <property name="rule" value="E"/>
   </properties>
  </object>
  <object id="35" gid="86" x="132" y="607" width="64" height="64">
   <properties>
    <property name="rule" value="E"/>
   </properties>
  </object>
  <object id="38" gid="10" x="127.125" y="192.344" width="64" height="64">
   <properties>
    <property name="rule" value="E"/>
   </properties>
  </object>
  <object id="39" gid="12" x="512" y="191.734" width="64" height="64">
   <properties>
    <property name="rule" value="E"/>
   </properties>
  </object>
  <object id="40" gid="78" x="432.368" y="242.247" width="64" height="64">
   <properties>
    <property name="rule" value="R"/>
   </properties>
  </object>
  <object id="41" gid="2147483727" x="396.656" y="223.954" width="64" height="64">
   <properties>
    <property name="rule" value="R"/>
   </properties>
  </object>
  <object id="42" gid="2147483725" x="391.922" y="258.083" width="64" height="64">
   <properties>
    <property name="rule" value="R"/>
   </properties>
  </object>
  <object id="43" gid="77" x="400.682" y="273.325" width="64" height="64">
   <properties>
    <property name="rule" value="R"/>
   </properties>
  </object>
  <object id="44" gid="2147483723" x="434.438" y="278.034" width="64" height="64">
   <properties>
    <property name="rule" value="R"/>
   </properties>
  </object>
  <object id="45" gid="26" x="365.948" y="609.084" width="64" height="64">
   <properties>
    <property name="rule" value="E"/>
   </properties>
  </object>
  <object id="46" gid="11" x="481.118" y="223.374" width="64" height="64"/>
 </objectgroup>
 <objectgroup draworder="index" id="3" name="room2_fallen_colonnade">
  <object id="64" gid="86" x="1360.67" y="1520.67" width="64" height="64">
   <properties>
    <property name="rule" value="E"/>
   </properties>
  </object>
  <object id="47" gid="89" x="1408" y="1382" width="64" height="64">
   <properties>
    <property name="rule" value="S"/>
   </properties>
  </object>
  <object id="48" gid="89" x="1600" y="1382" width="64" height="64">
   <properties>
    <property name="rule" value="S"/>
   </properties>
  </object>
  <object id="49" gid="93" x="1152" y="1446" width="64" height="64">
   <properties>
    <property name="rule" value="S"/>
   </properties>
  </object>
  <object id="50" gid="93" x="1344" y="1446" width="64" height="64">
   <properties>
    <property name="rule" value="S"/>
   </properties>
  </object>
  <object id="51" gid="93" x="1408" y="1446" width="64" height="64">
   <properties>
    <property name="rule" value="S"/>
   </properties>
  </object>
  <object id="52" gid="93" x="1472" y="1446" width="64" height="64">
   <properties>
    <property name="rule" value="S"/>
   </properties>
  </object>
  <object id="53" gid="93" x="1536" y="1446" width="64" height="64">
   <properties>
    <property name="rule" value="S"/>
   </properties>
  </object>
  <object id="54" gid="93" x="1600" y="1446" width="64" height="64">
   <properties>
    <property name="rule" value="S"/>
   </properties>
  </object>
  <object id="55" gid="93" x="1664" y="1446" width="64" height="64">
   <properties>
    <property name="rule" value="S"/>
   </properties>
  </object>
  <object id="56" gid="90" x="1408" y="1626" width="64" height="64">
   <properties>
    <property name="rule" value="S"/>
   </properties>
  </object>
  <object id="57" gid="93" x="1280" y="1572" width="64" height="64">
   <properties>
    <property name="rule" value="S"/>
   </properties>
  </object>
  <object id="58" gid="93" x="1600" y="1572" width="64" height="64">
   <properties>
    <property name="rule" value="S"/>
   </properties>
  </object>
  <object id="59" gid="93" x="1664" y="1572" width="64" height="64">
   <properties>
    <property name="rule" value="S"/>
   </properties>
  </object>
  <object id="60" gid="54" x="1361" y="1541" width="128" height="128">
   <properties>
    <property name="rule" value="F"/>
   </properties>
  </object>
  <object id="61" gid="88" x="1213.9" y="1379.02" width="64" height="64">
   <properties>
    <property name="rule" value="E"/>
   </properties>
  </object>
  <object id="62" gid="21" x="1548" y="1540" width="64" height="64">
   <properties>
    <property name="rule" value="E"/>
   </properties>
  </object>
  <object id="63" gid="36" x="1520" y="1568" width="64" height="64">
   <properties>
    <property name="rule" value="E"/>
   </properties>
  </object>
  <object id="65" gid="26" x="1418.33" y="1564.33" width="64" height="64">
   <properties>
    <property name="rule" value="E"/>
   </properties>
  </object>
  <object id="68" gid="2147483742" x="1664" y="1612" width="64" height="64">
   <properties>
    <property name="rule" value="E"/>
   </properties>
  </object>
  <object id="69" gid="95" x="1156" y="1626" width="64" height="64">
   <properties>
    <property name="rule" value="E"/>
   </properties>
  </object>
  <object id="70" gid="10" x="1409.33" y="1484" width="64" height="64">
   <properties>
    <property name="rule" value="E"/>
   </properties>
  </object>
  <object id="71" gid="12" x="1156" y="1348" width="64" height="64">
   <properties>
    <property name="rule" value="E"/>
   </properties>
  </object>
  <object id="72" gid="36" x="1238.35" y="1412.38" width="64" height="64">
   <properties>
    <property name="rule" value="E"/>
   </properties>
  </object>
  <object id="73" gid="93" x="1216" y="1446" width="64" height="64">
   <properties>
    <property name="rule" value="S"/>
   </properties>
  </object>
  <object id="74" gid="93" x="1152" y="1572" width="64" height="64">
   <properties>
    <property name="rule" value="S"/>
   </properties>
  </object>
  <object id="75" gid="93" x="1216" y="1572" width="64" height="64">
   <properties>
    <property name="rule" value="S"/>
   </properties>
  </object>
  <object id="76" gid="36" x="1649.93" y="1643.32" width="64" height="64">
   <properties>
    <property name="rule" value="E"/>
   </properties>
  </object>
  <object id="77" gid="87" x="1600" y="1626" width="64" height="64">
   <properties>
    <property name="rule" value="S"/>
   </properties>
  </object>
  <object id="78" gid="92" x="1214.85" y="1626.1" width="64" height="64"/>
 </objectgroup>
 <objectgroup draworder="index" id="4" name="room3_offering_circle">
  <object id="79" gid="3221225554" x="832" y="832" width="64" height="64">
   <properties>
    <property name="rule" value="P"/>
   </properties>
  </object>
  <object id="80" gid="1073741906" x="896" y="832" width="64" height="64">
   <properties>
    <property name="rule" value="P"/>
   </properties>
  </object>
  <object id="81" gid="2147483730" x="960" y="832" width="64" height="64">
   <properties>
    <property name="rule" value="P"/>
   </properties>
  </object>
  <object id="82" gid="2147483730" x="768" y="896" width="64" height="64">
   <properties>
    <property name="rule" value="P"/>
   </properties>
  </object>
  <object id="83" gid="82" x="832" y="896" width="64" height="64">
   <properties>
    <property name="rule" value="P"/>
   </properties>
  </object>
  <object id="84" gid="3221225554" x="896" y="896" width="64" height="64">
   <properties>
    <property name="rule" value="P"/>
   </properties>
  </object>
  <object id="85" gid="1073741906" x="960" y="896" width="64" height="64">
   <properties>
    <property name="rule" value="P"/>
   </properties>
  </object>
  <object id="86" gid="2147483730" x="1024" y="896" width="64" height="64">
   <properties>
    <property name="rule" value="P"/>
   </properties>
  </object>
  <object id="87" gid="1073741906" x="768" y="960" width="64" height="64">
   <properties>
    <property name="rule" value="P"/>
   </properties>
  </object>
  <object id="88" gid="2147483730" x="832" y="960" width="64" height="64">
   <properties>
    <property name="rule" value="P"/>
   </properties>
  </object>
  <object id="89" gid="82" x="896" y="960" width="64" height="64">
   <properties>
    <property name="rule" value="P"/>
   </properties>
  </object>
  <object id="90" gid="3221225554" x="960" y="960" width="64" height="64">
   <properties>
    <property name="rule" value="P"/>
   </properties>
  </object>
  <object id="91" gid="1073741906" x="1024" y="960" width="64" height="64">
   <properties>
    <property name="rule" value="P"/>
   </properties>
  </object>
  <object id="92" gid="3221225554" x="768" y="1024" width="64" height="64">
   <properties>
    <property name="rule" value="P"/>
   </properties>
  </object>
  <object id="93" gid="1073741906" x="832" y="1024" width="64" height="64">
   <properties>
    <property name="rule" value="P"/>
   </properties>
  </object>
  <object id="94" gid="2147483730" x="896" y="1024" width="64" height="64">
   <properties>
    <property name="rule" value="P"/>
   </properties>
  </object>
  <object id="95" gid="82" x="960" y="1024" width="64" height="64">
   <properties>
    <property name="rule" value="P"/>
   </properties>
  </object>
  <object id="96" gid="3221225554" x="1024" y="1024" width="64" height="64">
   <properties>
    <property name="rule" value="P"/>
   </properties>
  </object>
  <object id="97" gid="3221225554" x="832" y="1088" width="64" height="64">
   <properties>
    <property name="rule" value="P"/>
   </properties>
  </object>
  <object id="98" gid="1073741906" x="896" y="1088" width="64" height="64">
   <properties>
    <property name="rule" value="P"/>
   </properties>
  </object>
  <object id="99" gid="2147483730" x="960" y="1088" width="64" height="64">
   <properties>
    <property name="rule" value="P"/>
   </properties>
  </object>
  <object id="100" gid="50" x="832" y="1024" width="192" height="192">
   <properties>
    <property name="rule" value="F"/>
   </properties>
  </object>
  <object id="101" gid="96" x="906" y="972" width="64" height="64">
   <properties>
    <property name="rule" value="F"/>
   </properties>
  </object>
  <object id="102" gid="2147483718" x="940" y="1008" width="64" height="64">
   <properties>
    <property name="rule" value="F"/>
   </properties>
  </object>
  <object id="103" gid="71" x="808.515" y="1049.12" width="64" height="64">
   <properties>
    <property name="rule" value="E"/>
   </properties>
  </object>
  <object id="104" gid="94" x="768" y="1116" width="64" height="64">
   <properties>
    <property name="rule" value="E"/>
   </properties>
  </object>
  <object id="105" gid="10" x="708" y="1148" width="64" height="64">
   <properties>
    <property name="rule" value="E"/>
   </properties>
  </object>
  <object id="106" gid="12" x="1084" y="1146" width="64" height="64">
   <properties>
    <property name="rule" value="E"/>
   </properties>
  </object>
  <object id="107" gid="27" x="979.842" y="1136.29" width="64" height="64">
   <properties>
    <property name="rule" value="E"/>
   </properties>
  </object>
  <object id="108" gid="86" x="1016.68" y="1161.09" width="64" height="64">
   <properties>
    <property name="rule" value="E"/>
   </properties>
  </object>
  <object id="109" gid="32" x="733.57" y="989.092" width="64" height="64">
   <properties>
    <property name="rule" value="E"/>
   </properties>
  </object>
  <object id="110" gid="98" x="896.652" y="1084.83" width="64" height="64"/>
  <object id="111" gid="43" x="1025.09" y="1026.06" width="64" height="64"/>
  <object id="112" gid="42" x="767.264" y="897.617" width="64" height="64"/>
  <object id="157" gid="2147483718" x="1725.33" y="958.667" width="64" height="64">
   <properties>
    <property name="rule" value="F"/>
   </properties>
  </object>
  <object id="158" gid="96" x="830.667" y="386.667" width="64" height="64">
   <properties>
    <property name="rule" value="F"/>
   </properties>
  </object>
  <object id="159" gid="96" x="1534.67" y="1154.67" width="64" height="64">
   <properties>
    <property name="rule" value="F"/>
   </properties>
  </object>
 </objectgroup>
 <objectgroup draworder="index" id="5" name="room4_collapse_field">
  <object id="113" gid="65" x="134" y="1418" width="128" height="128">
   <properties>
    <property name="rule" value="F"/>
   </properties>
  </object>
  <object id="114" gid="57" x="240" y="1472" width="128" height="128">
   <properties>
    <property name="rule" value="A"/>
   </properties>
  </object>
  <object id="115" gid="34" x="316" y="1452" width="64" height="64">
   <properties>
    <property name="rule" value="A"/>
   </properties>
  </object>
  <object id="117" gid="21" x="400" y="1510" width="64" height="64">
   <properties>
    <property name="rule" value="A"/>
   </properties>
  </object>
  <object id="118" gid="36" x="444" y="1540" width="64" height="64">
   <properties>
    <property name="rule" value="A"/>
   </properties>
  </object>
  <object id="119" gid="26" x="486" y="1568" width="64" height="64">
   <properties>
    <property name="rule" value="A"/>
   </properties>
  </object>
  <object id="120" gid="32" x="566" y="1626" width="64" height="64">
   <properties>
    <property name="rule" value="A"/>
   </properties>
  </object>
  <object id="121" gid="56" x="506" y="1464" width="128" height="128">
   <properties>
    <property name="rule" value="S"/>
   </properties>
  </object>
  <object id="122" gid="45" x="140" y="1636" width="128" height="128">
   <properties>
    <property name="rule" value="S"/>
   </properties>
  </object>
  <object id="123" gid="95" x="202" y="1494" width="64" height="64">
   <properties>
    <property name="rule" value="E"/>
   </properties>
  </object>
  <object id="124" gid="2147483742" x="576" y="1502" width="64" height="64">
   <properties>
    <property name="rule" value="E"/>
   </properties>
  </object>
  <object id="125" gid="88" x="284" y="1354" width="64" height="64">
   <properties>
    <property name="rule" value="E"/>
   </properties>
  </object>
  <object id="126" gid="90" x="128" y="1152" width="64" height="64">
   <properties>
    <property name="rule" value="E"/>
   </properties>
  </object>
  <object id="127" gid="25" x="262" y="1626" width="64" height="64">
   <properties>
    <property name="rule" value="E"/>
   </properties>
  </object>
  <object id="128" gid="27" x="224" y="1648" width="64" height="64">
   <properties>
    <property name="rule" value="E"/>
   </properties>
  </object>
  <object id="129" gid="12" x="576" y="1664" width="64" height="64">
   <properties>
    <property name="rule" value="E"/>
   </properties>
  </object>
  <object id="155" gid="90" x="193" y="1151" width="64" height="64">
   <properties>
    <property name="rule" value="E"/>
   </properties>
  </object>
  <object id="156" gid="90" x="257" y="1152" width="64" height="64">
   <properties>
    <property name="rule" value="E"/>
   </properties>
  </object>
  <object id="160" gid="26" x="512" y="1149.33" width="64" height="64">
   <properties>
    <property name="rule" value="A"/>
   </properties>
  </object>
  <object id="161" gid="26" x="382.667" y="962.667" width="64" height="64">
   <properties>
    <property name="rule" value="A"/>
   </properties>
  </object>
  <object id="162" gid="26" x="897.333" y="704" width="64" height="64">
   <properties>
    <property name="rule" value="A"/>
   </properties>
  </object>
  <object id="163" gid="26" x="1281.33" y="833.333" width="64" height="64">
   <properties>
    <property name="rule" value="A"/>
   </properties>
  </object>
 </objectgroup>
 <objectgroup draworder="index" id="6" name="room5_reliquary">
  <object id="130" gid="82" x="1408" y="384" width="64" height="64">
   <properties>
    <property name="rule" value="P"/>
   </properties>
  </object>
  <object id="131" gid="3221225554" x="1472" y="384" width="64" height="64">
   <properties>
    <property name="rule" value="P"/>
   </properties>
  </object>
  <object id="132" gid="1073741906" x="1536" y="384" width="64" height="64">
   <properties>
    <property name="rule" value="P"/>
   </properties>
  </object>
  <object id="133" gid="2147483730" x="1600" y="384" width="64" height="64">
   <properties>
    <property name="rule" value="P"/>
   </properties>
  </object>
  <object id="134" gid="2147483730" x="1408" y="448" width="64" height="64">
   <properties>
    <property name="rule" value="P"/>
   </properties>
  </object>
  <object id="135" gid="82" x="1472" y="448" width="64" height="64">
   <properties>
    <property name="rule" value="P"/>
   </properties>
  </object>
  <object id="136" gid="3221225554" x="1536" y="448" width="64" height="64">
   <properties>
    <property name="rule" value="P"/>
   </properties>
  </object>
  <object id="137" gid="1073741906" x="1600" y="448" width="64" height="64">
   <properties>
    <property name="rule" value="P"/>
   </properties>
  </object>
  <object id="138" gid="60" x="1440" y="320" width="192" height="192">
   <properties>
    <property name="rule" value="A"/>
   </properties>
  </object>
  <object id="139" gid="51" x="1472" y="448" width="128" height="128">
   <properties>
    <property name="rule" value="F"/>
   </properties>
  </object>
  <object id="140" gid="71" x="1530.33" y="431.848" width="64" height="64">
   <properties>
    <property name="rule" value="F"/>
   </properties>
  </object>
  <object id="141" gid="78" x="1413.19" y="314.098" width="64" height="64">
   <properties>
    <property name="rule" value="R"/>
   </properties>
  </object>
  <object id="142" gid="2147483725" x="1395.89" y="329.738" width="64" height="64">
   <properties>
    <property name="rule" value="R"/>
   </properties>
  </object>
  <object id="143" gid="97" x="1595" y="281.859" width="64" height="64">
   <properties>
    <property name="rule" value="A"/>
   </properties>
  </object>
  <object id="144" gid="13" x="1317.21" y="479.412" width="64" height="64">
   <properties>
    <property name="rule" value="E"/>
   </properties>
  </object>
  <object id="145" gid="2147483742" x="1722" y="484" width="64" height="64">
   <properties>
    <property name="rule" value="E"/>
   </properties>
  </object>
  <object id="146" gid="70" x="1692" y="454" width="64" height="64">
   <properties>
    <property name="rule" value="E"/>
   </properties>
  </object>
  <object id="147" gid="10" x="1284" y="196" width="64" height="64">
   <properties>
    <property name="rule" value="E"/>
   </properties>
  </object>
  <object id="148" gid="12" x="1728" y="196" width="64" height="64">
   <properties>
    <property name="rule" value="E"/>
   </properties>
  </object>
  <object id="149" gid="31" x="1328" y="570" width="64" height="64">
   <properties>
    <property name="rule" value="E"/>
   </properties>
  </object>
  <object id="150" gid="32" x="1296" y="540" width="64" height="64">
   <properties>
    <property name="rule" value="E"/>
   </properties>
  </object>
  <object id="151" gid="25" x="1376" y="588" width="64" height="64">
   <properties>
    <property name="rule" value="E"/>
   </properties>
  </object>
  <object id="152" gid="66" x="1686" y="534" width="64" height="64">
   <properties>
    <property name="rule" value="E"/>
   </properties>
  </object>
  <object id="153" gid="36" x="1722" y="560" width="64" height="64">
   <properties>
    <property name="rule" value="E"/>
   </properties>
  </object>
  <object id="154" gid="27" x="1572.67" y="474" width="64" height="64">
   <properties>
    <property name="rule" value="E"/>
   </properties>
  </object>
 </objectgroup>
</map>
