<?xml version='1.0' encoding='UTF-8'?>
<map version="1.10" tiledversion="1.10" orientation="orthogonal" renderorder="right-down" width="34" height="22" tilewidth="32" tileheight="32" infinite="0" nextlayerid="6" nextobjectid="21">
 <tileset firstgid="1" name="temple" tilewidth="32" tileheight="32" tilecount="24" columns="8">
  <image source="temple_tileset.png" width="256" height="96" />
  <tile id="0">
   <properties>
    <property name="walkable" type="bool" value="true" />
    <property name="noisy" type="bool" value="false" />
   </properties>
  </tile>
  <tile id="2">
   <properties>
    <property name="walkable" type="bool" value="true" />
    <property name="noisy" type="bool" value="true" />
   </properties>
  </tile>
  <tile id="3">
   <properties>
    <property name="walkable" type="bool" value="true" />
   </properties>
  </tile>
  <tile id="4">
   <properties>
    <property name="walkable" type="bool" value="true" />
   </properties>
  </tile>
  <tile id="5">
   <properties>
    <property name="walkable" type="bool" value="true" />
   </properties>
  </tile>
 </tileset>
 <layer id="1" name="floor" width="34" height="22">
  <data encoding="csv">
0,0,0,0,0,0,0,0,0,0,0,0,0,0,0,0,0,0,0,0,0,0,0,0,0,0,0,0,0,0,0,0,0,0,
0,0,0,0,0,0,0,0,0,0,0,0,0,0,0,0,0,0,0,0,0,0,0,0,0,0,0,0,0,0,0,0,0,0,
0,0,0,0,0,0,0,0,0,0,0,0,0,0,0,0,0,0,0,0,0,0,0,0,0,0,0,0,0,0,0,0,0,0,
0,0,0,1,1,3,1,1,3,1,0,0,0,0,0,0,0,0,0,0,0,0,0,0,1,1,3,1,1,1,1,0,0,0,
0,0,0,1,3,1,1,1,1,1,1,1,1,1,3,1,1,1,1,1,1,1,1,1,1,3,1,1,3,1,3,0,0,0,
0,0,0,1,1,1,0,3,1,1,1,3,1,3,1,1,3,1,1,1,1,1,3,1,1,1,3,1,1,1,1,0,0,0,
0,0,0,3,1,3,1,1,1,1,0,0,0,0,0,0,1,1,0,0,1,0,0,0,3,1,1,0,3,1,1,0,0,0,
0,0,0,1,1,1,1,1,3,1,0,1,0,0,0,0,1,1,0,0,1,0,0,0,1,3,1,1,1,3,1,0,0,0,
0,0,0,0,1,1,0,0,0,0,0,3,0,0,0,0,1,1,0,0,1,0,0,0,0,0,0,0,1,1,0,0,0,0,
0,0,0,0,1,1,0,0,0,0,0,1,0,0,1,3,1,1,1,3,0,0,0,0,0,0,0,0,3,1,0,0,0,0,
0,0,0,0,1,1,1,1,1,3,1,3,1,1,1,1,1,1,1,1,1,1,1,1,1,1,1,1,1,3,0,0,0,0,
0,0,0,0,1,1,1,1,1,1,1,1,1,1,1,3,1,1,3,1,3,1,3,1,1,1,1,1,1,1,0,0,0,0,
0,0,0,0,1,3,0,0,0,0,0,0,0,0,1,1,1,1,1,1,0,0,1,0,0,0,0,0,1,1,0,0,0,0,
0,0,0,0,3,1,0,0,0,0,0,0,0,0,1,1,1,1,1,3,0,0,1,0,0,0,0,0,1,3,0,0,0,0,
0,0,0,3,1,3,1,3,1,3,0,0,0,0,0,0,1,3,0,0,0,0,1,0,1,1,3,1,1,1,3,0,0,0,
0,0,0,1,1,0,1,1,1,1,0,0,0,0,0,0,3,1,0,0,0,0,0,0,1,1,1,1,3,1,1,0,0,0,
0,0,0,3,1,1,3,1,1,1,1,1,1,1,1,1,1,3,1,1,3,1,1,1,3,1,0,1,1,1,3,0,0,0,
0,0,0,1,1,1,1,1,3,1,1,1,3,1,1,1,3,1,3,1,1,1,1,3,1,1,3,1,1,1,1,0,0,0,
0,0,0,1,1,1,1,1,1,1,0,0,0,0,0,0,0,0,0,0,0,0,0,0,3,1,1,1,1,1,3,0,0,0,
0,0,0,0,0,0,0,0,0,0,0,0,0,0,0,0,0,0,0,0,0,0,0,0,0,0,0,0,0,0,0,0,0,0,
0,0,0,0,0,0,0,0,0,0,0,0,0,0,0,0,0,0,0,0,0,0,0,0,0,0,0,0,0,0,0,0,0,0,
0,0,0,0,0,0,0,0,0,0,0,0,0,0,0,0,0,0,0,0,0,0,0,0,0,0,0,0,0,0,0,0,0,0
</data>
 </layer>
 <layer id="2" name="walls" width="34" height="22">
  <data encoding="csv">
24,24,24,24,24,24,24,24,24,24,24,24,24,24,24,24,24,24,24,24,24,24,24,24,24,24,24,24,24,24,24,24,24,24,
24,24,24,24,24,24,24,24,24,24,24,24,24,24,24,24,24,24,24,24,24,24,24,24,24,24,24,24,24,24,24,24,24,24,
24,24,24,20,20,20,20,20,20,20,24,24,24,24,24,24,24,24,24,24,24,24,24,24,20,20,20,20,20,20,20,24,24,24,
24,24,22,0,0,0,0,0,0,0,12,20,20,20,20,20,20,20,20,20,20,20,20,18,0,0,0,0,0,0,0,16,24,24,
24,24,22,0,0,0,0,0,0,0,0,0,0,0,0,0,0,0,0,0,0,0,0,0,0,0,0,0,0,0,0,16,24,24,
24,24,22,0,0,0,9,0,0,0,0,0,0,0,0,0,0,0,0,0,0,0,0,0,0,0,0,0,0,0,0,16,24,24,
24,24,22,0,0,0,0,0,0,0,15,19,23,23,23,21,0,0,15,21,0,15,23,21,0,0,0,9,0,0,0,16,24,24,
24,24,22,0,0,0,0,0,0,0,14,0,16,24,24,22,0,0,16,22,0,16,24,22,0,0,0,0,0,0,0,16,24,24,
24,24,24,21,0,0,15,23,23,23,22,0,16,24,20,18,0,0,12,18,0,16,24,24,23,23,23,21,0,0,15,24,24,24,
24,24,24,22,0,0,12,20,20,20,18,0,12,18,0,0,0,0,0,0,11,20,20,20,20,20,20,18,0,0,16,24,24,24,
24,24,24,22,0,0,0,0,0,0,0,0,0,0,0,0,0,0,0,0,0,0,0,0,0,0,0,0,0,0,16,24,24,24,
24,24,24,22,0,0,0,0,0,0,0,0,0,0,0,0,0,0,0,0,0,0,0,0,0,0,0,0,0,0,16,24,24,24,
24,24,24,22,0,0,15,23,23,23,23,23,23,21,0,0,0,0,0,0,15,21,0,15,23,23,23,21,0,0,16,24,24,24,
24,24,24,18,0,0,12,20,20,20,24,24,24,22,0,0,0,0,0,0,16,22,0,16,20,20,20,18,0,0,12,24,24,24,
24,24,22,0,0,0,0,0,0,0,16,24,24,24,23,21,0,0,15,23,24,22,0,14,0,0,0,0,0,0,0,16,24,24,
24,24,22,0,0,9,0,0,0,0,12,20,20,20,20,18,0,0,12,20,20,20,19,18,0,0,0,0,0,0,0,16,24,24,
24,24,22,0,0,0,0,0,0,0,0,0,0,0,0,0,0,0,0,0,0,0,0,0,0,0,9,0,0,0,0,16,24,24,
24,24,22,0,0,0,0,0,0,0,0,0,0,0,0,0,0,0,0,0,0,0,0,0,0,0,0,0,0,0,0,16,24,24,
24,24,22,0,0,0,0,0,0,0,15,23,23,23,23,23,23,23,23,23,23,23,23,21,0,0,0,0,0,0,0,16,24,24,
24,24,24,23,23,23,23,23,23,23,24,24,24,24,24,24,24,24,24,24,24,24,24,24,23,23,23,23,23,23,23,24,24,24,
24,24,24,24,24,24,24,24,24,24,24,24,24,24,24,24,24,24,24,24,24,24,24,24,24,24,24,24,24,24,24,24,24,24,
24,24,24,24,24,24,24,24,24,24,24,24,24,24,24,24,24,24,24,24,24,24,24,24,24,24,24,24,24,24,24,24,24,24
</data>
 </layer>
 <layer id="4" name="deco" width="34" height="22">
  <data encoding="csv">
0,0,0,0,0,0,0,0,0,0,0,0,0,0,0,0,0,0,0,0,0,0,0,0,0,0,0,0,0,0,0,0,0,0,
0,0,0,0,0,0,0,0,0,0,0,0,0,0,0,0,0,0,0,0,0,0,0,0,0,0,0,0,0,0,0,0,0,0,
0,0,0,0,0,0,0,0,0,0,0,0,0,0,0,0,0,0,0,0,0,0,0,0,0,0,0,0,0,0,0,0,0,0,
0,0,0,0,0,0,0,0,0,0,0,0,0,0,0,0,0,0,0,0,0,0,0,0,0,0,0,0,0,0,0,0,0,0,
0,0,0,0,0,0,0,0,0,0,0,0,0,0,0,0,0,0,0,0,0,0,0,0,0,0,0,0,0,0,0,0,0,0,
0,0,0,0,0,0,0,0,0,0,0,0,0,0,0,0,0,0,0,0,0,0,0,0,0,0,0,0,0,0,0,0,0,0,
0,0,0,0,0,0,0,0,0,0,0,0,0,0,0,0,0,0,0,0,0,0,0,0,0,0,0,0,0,0,0,0,0,0,
0,0,0,0,0,0,0,0,0,0,0,0,0,0,0,0,0,0,0,0,0,0,0,0,0,0,0,0,0,0,0,0,0,0,
0,0,0,0,0,0,0,0,0,0,0,0,0,0,0,0,0,0,0,0,0,0,0,0,0,0,0,0,0,0,0,0,0,0,
0,0,0,0,0,0,0,0,0,0,0,0,0,0,0,0,0,0,0,0,0,0,0,0,0,0,0,0,0,0,0,0,0,0,
0,0,0,0,0,0,0,0,0,0,0,0,0,0,0,0,0,0,0,0,0,0,0,0,0,0,0,0,0,0,0,0,0,0,
0,0,0,0,0,0,0,0,0,0,0,0,0,0,0,0,0,0,0,0,0,0,0,0,0,0,0,0,0,0,0,0,0,0,
0,0,0,0,0,0,0,0,0,0,0,0,0,0,0,0,0,0,0,0,0,0,0,0,0,0,0,0,0,0,0,0,0,0,
0,0,0,0,0,0,0,0,0,0,0,0,0,0,0,0,0,0,0,0,0,0,0,0,0,0,0,0,0,0,0,0,0,0,
0,0,0,0,0,0,0,0,0,0,0,0,0,0,0,0,0,0,0,0,0,0,0,0,0,0,0,0,0,0,0,0,0,0,
0,0,0,0,0,0,0,0,0,0,0,0,0,0,0,0,0,0,0,0,0,0,0,0,0,0,0,0,0,0,0,0,0,0,
0,0,0,0,0,0,0,0,0,0,0,0,0,0,0,0,0,0,0,0,0,0,0,0,0,0,0,0,0,0,0,0,0,0,
0,0,0,0,0,0,0,0,0,0,0,0,0,0,0,0,0,0,0,0,0,0,0,0,0,0,0,0,0,0,0,0,0,0,
0,0,0,0,0,0,0,0,0,0,0,0,0,0,0,0,0,0,0,0,0,0,0,0,0,0,0,0,0,0,0,0,0,0,
0,0,0,0,0,0,0,0,0,0,0,0,0,0,0,0,0,0,0,0,0,0,0,0,0,0,0,0,0,0,0,0,0,0,
0,0,0,0,0,0,0,0,0,0,0,0,0,0,0,0,0,0,0,0,0,0,0,0,0,0,0,0,0,0,0,0,0,0,
0,0,0,0,0,0,0,0,0,0,0,0,0,0,0,0,0,0,0,0,0,0,0,0,0,0,0,0,0,0,0,0,0,0
</data>
 </layer>
 <objectgroup id="3" name="objects">
  <object id="1" name="player_start" x="528" y="496">
   <point />
  </object>
  <object id="2" name="exit_door" x="560" y="368">
   <point />
  </object>
  <object id="3" name="artifact_1" x="208" y="144">
   <point />
  </object>
  <object id="4" name="artifact_2" x="880" y="144">
   <point />
  </object>
  <object id="5" name="artifact_3" x="880" y="560">
   <point />
  </object>
  <object id="6" name="artifact_4" x="208" y="560">
   <point />
  </object>
  <object id="7" name="zombie_default_D1" x="528" y="240">
   <point />
  </object>
  <object id="8" name="zombie_default_D2" x="208" y="368">
   <point />
  </object>
  <object id="9" name="zombie_wander_spawn" x="912" y="368">
   <point />
  </object>
  <object id="10" name="noise_glass_1" x="176" y="368">
   <point />
  </object>
  <object id="11" name="noise_glass_2" x="752" y="176">
   <point />
  </object>
  <object id="12" name="noise_door_1" x="560" y="304">
   <point />
  </object>
 </objectgroup>
 <objectgroup id="5" name="spawns">
  <object id="13" name="SP1_WN" x="272" y="112">
   <point />
  </object>
  <object id="14" name="SP2_EN" x="976" y="112">
   <point />
  </object>
  <object id="15" name="SP3_WN" x="368" y="240">
   <point />
  </object>
  <object id="16" name="SP4_CM" x="656" y="272">
   <point />
  </object>
  <object id="17" name="SP5_WS" x="112" y="464">
   <point />
  </object>
  <object id="18" name="SP6_ES" x="720" y="464">
   <point />
  </object>
  <object id="19" name="SP7_CS" x="400" y="560">
   <point />
  </object>
  <object id="20" name="SP8_ES" x="976" y="592">
   <point />
  </object>
 </objectgroup>
</map>