<?xml version='1.0' encoding='UTF-8'?>
<map version="1.10" tiledversion="1.10" orientation="orthogonal" renderorder="right-down" width="34" height="22" tilewidth="64" tileheight="64" infinite="0" nextlayerid="6" nextobjectid="21">
 <tileset firstgid="1" name="temple" tilewidth="64" tileheight="64" tilecount="24" columns="8">
  <image source="temple_tileset.png" width="512" height="192" />
  <tile id="0">
   <properties>
    <property name="walkable" type="bool" value="true" />
    <property name="noisy" type="bool" value="false" />
   </properties>
  </tile>
  <tile id="2">
   <properties>
    <property name="walkable" type="bool" value="true" />
    <property name="noisy" type="bool" value="true" />
   </properties>
  </tile>
  <tile id="3">
   <properties>
    <property name="walkable" type="bool" value="true" />
   </properties>
  </tile>
  <tile id="4">
   <properties>
    <property name="walkable" type="bool" value="true" />
   </properties>
  </tile>
  <tile id="5">
   <properties>
    <property name="walkable" type="bool" value="true" />
   </properties>
  </tile>
 </tileset>
 <layer id="1" name="floor" width="34" height="22">
  <data encoding="csv">
0,0,0,0,0,0,0,0,0,0,0,0,0,0,0,0,0,0,0,0,0,0,0,0,0,0,0,0,0,0,0,0,0,0,
0,0,0,0,0,0,0,0,0,0,0,0,0,0,0,0,0,0,0,0,0,0,0,0,0,0,0,0,0,0,0,0,0,0,
0,0,0,0,0,0,0,0,0,0,0,0,0,0,0,0,0,0,0,0,0,0,0,0,0,0,0,0,0,0,0,0,0,0,
0,0,0,1,1,3,1,1,3,1,0,0,0,0,0,0,0,0,0,0,0,0,0,0,1,1,3,1,1,1,1,0,0,0,
0,0,0,1,3,1,1,1,1,1,1,1,1,1,3,1,1,1,1,1,1,1,1,1,1,3,1,1,3,1,3,0,0,0,
0,0,0,1,1,1,0,3,1,1,1,3,1,3,1,1,3,1,1,1,1,1,3,1,1,1,3,1,1,1,1,0,0,0,
0,0,0,3,1,3,1,1,1,1,0,0,0,0,0,0,1,1,0,0,1,0,0,0,3,1,1,0,3,1,1,0,0,0,
0,0,0,1,1,1,1,1,3,1,0,1,0,0,0,0,1,1,0,0,1,0,0,0,1,3,1,1,1,3,1,0,0,0,
0,0,0,0,1,1,0,0,0,0,0,3,0,0,0,0,1,1,0,0,1,0,0,0,0,0,0,0,1,1,0,0,0,0,
0,0,0,0,1,1,0,0,0,0,0,1,0,0,1,3,1,1,1,3,0,0,0,0,0,0,0,0,3,1,0,0,0,0,
0,0,0,0,1,1,1,1,1,3,1,3,1,1,1,1,1,1,1,1,1,1,1,1,1,1,1,1,1,3,0,0,0,0,
0,0,0,0,1,1,1,1,1,1,1,1,1,1,1,3,1,1,3,1,3,1,3,1,1,1,1,1,1,1,0,0,0,0,
0,0,0,0,1,3,0,0,0,0,0,0,0,0,1,1,1,1,1,1,0,0,1,0,0,0,0,0,1,1,0,0,0,0,
0,0,0,0,3,1,0,0,0,0,0,0,0,0,1,1,1,1,1,3,0,0,1,0,0,0,0,0,1,3,0,0,0,0,
0,0,0,3,1,3,1,3,1,3,0,0,0,0,0,0,1,3,0,0,0,0,1,0,1,1,3,1,1,1,3,0,0,0,
0,0,0,1,1,0,1,1,1,1,0,0,0,0,0,0,3,1,0,0,0,0,0,0,1,1,1,1,3,1,1,0,0,0,
0,0,0,3,1,1,3,1,1,1,1,1,1,1,1,1,1,3,1,1,3,1,1,1,3,1,0,1,1,1,3,0,0,0,
0,0,0,1,1,1,1,1,3,1,1,1,3,1,1,1,3,1,3,1,1,1,1,3,1,1,3,1,1,1,1,0,0,0,
0,0,0,1,1,1,1,1,1,1,0,0,0,0,0,0,0,0,0,0,0,0,0,0,3,1,1,1,1,1,3,0,0,0,
0,0,0,0,0,0,0,0,0,0,0,0,0,0,0,0,0,0,0,0,0,0,0,0,0,0,0,0,0,0,0,0,0,0,
0,0,0,0,0,0,0,0,0,0,0,0,0,0,0,0,0,0,0,0,0,0,0,0,0,0,0,0,0,0,0,0,0,0,
0,0,0,0,0,0,0,0,0,0,0,0,0,0,0,0,0,0,0,0,0,0,0,0,0,0,0,0,0,0,0,0,0,0
</data>
 </layer>
 <layer id="2" name="walls" width="34" height="22">
  <data encoding="csv">
24,24,24,24,24,24,24,24,24,24,24,24,24,24,24,24,24,24,24,24,24,24,24,24,24,24,24,24,24,24,24,24,24,24,
24,24,24,24,24,24,24,24,24,24,24,24,24,24,24,24,24,24,24,24,24,24,24,24,24,24,24,24,24,24,24,24,24,24,
24,24,24,20,20,20,20,20,20,20,24,24,24,24,24,24,24,24,24,24,24,24,24,24,20,20,20,20,20,20,20,24,24,24,
24,24,22,0,0,0,0,0,0,0,12,20,20,20,20,20,20,20,20,20,20,20,20,18,0,0,0,0,0,0,0,16,24,24,
24,24,22,0,0,0,0,0,0,0,0,0,0,0,0,0,0,0,0,0,0,0,0,0,0,0,0,0,0,0,0,16,24,24,
24,24,22,0,0,0,9,0,0,0,0,0,0,0,0,0,0,0,0,0,0,0,0,0,0,0,0,0,0,0,0,16,24,24,
24,24,22,0,0,0,0,0,0,0,15,19,23,23,23,21,0,0,15,21,0,15,23,21,0,0,0,9,0,0,0,16,24,24,
24,24,22,0,0,0,0,0,0,0,14,0,16,24,24,22,0,0,16,22,0,16,24,22,0,0,0,0,0,0,0,16,24,24,
24,24,24,21,0,0,15,23,23,23,22,0,16,24,20,18,0,0,12,18,0,16,24,24,23,23,23,21,0,0,15,24,24,24,
24,24,24,22,0,0,12,20,20,20,18,0,12,18,0,0,0,0,0,0,11,20,20,20,20,20,20,18,0,0,16,24,24,24,
24,24,24,22,0,0,0,0,0,0,0,0,0,0,0,0,0,0,0,0,0,0,0,0,0,0,0,0,0,0,16,24,24,24,
24,24,24,22,0,0,0,0,0,0,0,0,0,0,0,0,0,0,0,0,0,0,0,0,0,0,0,0,0,0,16,24,24,24,
24,24,24,22,0,0,15,23,23,23,23,23,23,21,0,0,0,0,0,0,15,21,0,15,23,23,23,21,0,0,16,24,24,24,
24,24,24,18,0,0,12,20,20,20,24,24,24,22,0,0,0,0,0,0,16,22,0,16,20,20,20,18,0,0,12,24,24,24,
24,24,22,0,0,0,0,0,0,0,16,24,24,24,23,21,0,0,15,23,24,22,0,14,0,0,0,0,0,0,0,16,24,24,
24,24,22,0,0,9,0,0,0,0,12,20,20,20,20,18,0,0,12,20,20,20,19,18,0,0,0,0,0,0,0,16,24,24,
24,24,22,0,0,0,0,0,0,0,0,0,0,0,0,0,0,0,0,0,0,0,0,0,0,0,9,0,0,0,0,16,24,24,
24,24,22,0,0,0,0,0,0,0,0,0,0,0,0,0,0,0,0,0,0,0,0,0,0,0,0,0,0,0,0,16,24,24,
24,24,22,0,0,0,0,0,0,0,15,23,23,23,23,23,23,23,23,23,23,23,23,21,0,0,0,0,0,0,0,16,24,24,
24,24,24,23,23,23,23,23,23,23,24,24,24,24,24,24,24,24,24,24,24,24,24,24,23,23,23,23,23,23,23,24,24,24,
24,24,24,24,24,24,24,24,24,24,24,24,24,24,24,24,24,24,24,24,24,24,24,24,24,24,24,24,24,24,24,24,24,24,
24,24,24,24,24,24,24,24,24,24,24,24,24,24,24,24,24,24,24,24,24,24,24,24,24,24,24,24,24,24,24,24,24,24
</data>
 </layer>
 <layer id="4" name="deco" width="34" height="22">
  <data encoding="csv">
0,0,0,0,0,0,0,0,0,0,0,0,0,0,0,0,0,0,0,0,0,0,0,0,0,0,0,0,0,0,0,0,0,0,
0,0,0,0,0,0,0,0,0,0,0,0,0,0,0,0,0,0,0,0,0,0,0,0,0,0,0,0,0,0,0,0,0,0,
0,0,0,0,0,0,0,0,0,0,0,0,0,0,0,0,0,0,0,0,0,0,0,0,0,0,0,0,0,0,0,0,0,0,
0,0,0,0,0,0,0,0,0,0,0,0,0,0,0,0,0,0,0,0,0,0,0,0,0,0,0,0,0,0,0,0,0,0,
0,0,0,0,0,0,0,0,0,0,0,0,0,0,0,0,0,0,0,0,0,0,0,0,0,0,0,0,0,0,0,0,0,0,
0,0,0,0,0,0,0,0,0,0,0,0,0,0,0,0,0,0,0,0,0,0,0,0,0,0,0,0,0,0,0,0,0,0,
0,0,0,0,0,0,0,0,0,0,0,0,0,0,0,0,0,0,0,0,0,0,0,0,0,0,0,0,0,0,0,0,0,0,
0,0,0,0,0,0,0,0,0,0,0,0,0,0,0,0,0,0,0,0,0,0,0,0,0,0,0,0,0,0,0,0,0,0,
0,0,0,0,0,0,0,0,0,0,0,0,0,0,0,0,0,0,0,0,0,0,0,0,0,0,0,0,0,0,0,0,0,0,
0,0,0,0,0,0,0,0,0,0,0,0,0,0,0,0,0,0,0,0,0,0,0,0,0,0,0,0,0,0,0,0,0,0,
0,0,0,0,0,0,0,0,0,0,0,0,0,0,0,0,0,0,0,0,0,0,0,0,0,0,0,0,0,0,0,0,0,0,
0,0,0,0,0,0,0,0,0,0,0,0,0,0,0,0,0,0,0,0,0,0,0,0,0,0,0,0,0,0,0,0,0,0,
0,0,0,0,0,0,0,0,0,0,0,0,0,0,0,0,0,0,0,0,0,0,0,0,0,0,0,0,0,0,0,0,0,0,
0,0,0,0,0,0,0,0,0,0,0,0,0,0,0,0,0,0,0,0,0,0,0,0,0,0,0,0,0,0,0,0,0,0,
0,0,0,0,0,0,0,0,0,0,0,0,0,0,0,0,0,0,0,0,0,0,0,0,0,0,0,0,0,0,0,0,0,0,
0,0,0,0,0,0,0,0,0,0,0,0,0,0,0,0,0,0,0,0,0,0,0,0,0,0,0,0,0,0,0,0,0,0,
0,0,0,0,0,0,0,0,0,0,0,0,0,0,0,0,0,0,0,0,0,0,0,0,0,0,0,0,0,0,0,0,0,0,
0,0,0,0,0,0,0,0,0,0,0,0,0,0,0,0,0,0,0,0,0,0,0,0,0,0,0,0,0,0,0,0,0,0,
0,0,0,0,0,0,0,0,0,0,0,0,0,0,0,0,0,0,0,0,0,0,0,0,0,0,0,0,0,0,0,0,0,0,
0,0,0,0,0,0,0,0,0,0,0,0,0,0,0,0,0,0,0,0,0,0,0,0,0,0,0,0,0,0,0,0,0,0,
0,0,0,0,0,0,0,0,0,0,0,0,0,0,0,0,0,0,0,0,0,0,0,0,0,0,0,0,0,0,0,0,0,0,
0,0,0,0,0,0,0,0,0,0,0,0,0,0,0,0,0,0,0,0,0,0,0,0,0,0,0,0,0,0,0,0,0,0
</data>
 </layer>
 <objectgroup id="3" name="objects">
  <object id="1" name="player_start" x="1056.0" y="992.0">
   <point />
  </object>
  <object id="2" name="exit_door" x="1120.0" y="736.0">
   <point />
  </object>
  <object id="3" name="artifact_1" x="416.0" y="288.0">
   <point />
  </object>
  <object id="4" name="artifact_2" x="1760.0" y="288.0">
   <point />
  </object>
  <object id="5" name="artifact_3" x="1760.0" y="1120.0">
   <point />
  </object>
  <object id="6" name="artifact_4" x="416.0" y="1120.0">
   <point />
  </object>
  <object id="7" name="zombie_default_D1" x="1056.0" y="480.0">
   <point />
  </object>
  <object id="8" name="zombie_default_D2" x="416.0" y="736.0">
   <point />
  </object>
  <object id="9" name="zombie_wander_spawn" x="1824.0" y="736.0">
   <point />
  </object>
  <object id="10" name="noise_glass_1" x="352.0" y="736.0">
   <point />
  </object>
  <object id="11" name="noise_glass_2" x="1504.0" y="352.0">
   <point />
  </object>
  <object id="12" name="noise_door_1" x="1120.0" y="608.0">
   <point />
  </object>
 </objectgroup>
 <objectgroup id="5" name="spawns">
  <object id="13" name="SP1_WN" x="544.0" y="224.0">
   <point />
  </object>
  <object id="14" name="SP2_EN" x="1952.0" y="224.0">
   <point />
  </object>
  <object id="15" name="SP3_WN" x="736.0" y="480.0">
   <point />
  </object>
  <object id="16" name="SP4_CM" x="1312.0" y="544.0">
   <point />
  </object>
  <object id="17" name="SP5_WS" x="224.0" y="928.0">
   <point />
  </object>
  <object id="18" name="SP6_ES" x="1440.0" y="928.0">
   <point />
  </object>
  <object id="19" name="SP7_CS" x="800.0" y="1120.0">
   <point />
  </object>
  <object id="20" name="SP8_ES" x="1952.0" y="1184.0">
   <point />
  </object>
 </objectgroup>
</map>