<?xml version="1.0" encoding="UTF-8"?>
<map version="1.10" tiledversion="1.11.0" orientation="orthogonal" renderorder="right-down" width="3" height="3" tilewidth="32" tileheight="32" infinite="0" nextlayerid="2" nextobjectid="5">
 <properties>
  <property name="tag" value="generic"/>
 </properties>
 <objectgroup id="1" name="deco">
  <object id="1" name="container_sarcophagus_closed" x="48" y="16"/>
  <object id="2" name="debris_pile" x="16" y="80"/>
  <object id="3" name="debris_fragments" x="80" y="16"/>
  <object id="4" name="cobweb_torn" x="80" y="80"/>
 </objectgroup>
</map>
